ZuAh/IntroToDLC_Summerschool2022/colab_plot_link_and_data/Markers4Colab.csv
nose_1,nose_2,nose_3,nose_4,nose_5,nose_6,L_ear_1,L_ear_2,L_ear_3,L_ear_4,L_ear_5,L_ear_6,R_ear_1,R_ear_2,R_ear_3,R_ear_4,R_ear_5,R_ear_6,neck_1,neck_2,neck_3,neck_4,neck_5,neck_6,L_shoulder_1,L_shoulder_2,L_shoulder_3,L_shoulder_4,L_shoulder_5,L_shoulder_6,R_shoulder_1,R_shoulder_2,R_shoulder_3,R_shoulder_4,R_shoulder_5,R_shoulder_6,L_elbow_1,L_elbow_2,L_elbow_3,L_elbow_4,L_elbow_5,L_elbow_6,R_elbow_1,R_elbow_2,R_elbow_3,R_elbow_4,R_elbow_5,R_elbow_6,L_wrist_1,L_wrist_2,L_wrist_3,L_wrist_4,L_wrist_5,L_wrist_6,R_wrist_1,R_wrist_2,R_wrist_3,R_wrist_4,R_wrist_5,R_wrist_6,S_tail_1,S_tail_2,S_tail_3,S_tail_4,S_tail_5,S_tail_6,E_tail_1,E_tail_2,E_tail_3,E_tail_4,E_tail_5,E_tail_6,L_knee_1,L_knee_2,L_knee_3,L_knee_4,L_knee_5,L_knee_6,R_knee_1,R_knee_2,R_knee_3,R_knee_4,R_knee_5,R_knee_6,L_ankle_1,L_ankle_2,L_ankle_3,L_ankle_4,L_ankle_5,L_ankle_6,R_ankle_1,R_ankle_2,R_ankle_3,R_ankle_4,R_ankle_5,R_ankle_6,L_eye_1,L_eye_2,L_eye_3,L_eye_4,L_eye_5,L_eye_6,R_eye_1,R_eye_2,R_eye_3,R_eye_4,R_eye_5,R_eye_6
-29.9455957523829,-84.0771304922599,3193.18132813628,0.12,0.8,1,12.0321540777125,-45.9629664869554,3124.98936201578,0.56,0.9,1,103.486408263249,-96.3857625616932,3178.69035606823,0.56,0.9,1,104.678226864205,-38.8451020083667,3168.00460200019,0.1,0.66,0.03,-25.3961801429859,33.8220938988388,3222.08839297813,0.85,0.07,0.09,39.4247539926342,-102.08568275963,3271.07240398603,0.95,0.49,0.05,-111.488262621988,36.4000887250866,3273.23381568023,0.85,0.07,0.09,-36.0234712850768,-5.81604502600315,3400.38863703777,0.95,0.49,0.05,-174.414384283792,-138.150208597344,3278.8499201538,0.85,0.07,0.09,-130.424077269999,-140.615058264837,3339.91109385069,0.95,0.49,0.05,302.722529484688,308.744079524351,3299.72220897297,0.1,0.66,0.03,413.610127863817,482.212427083999,3397.38934723092,0.96,0.94,0.08,253.200205137919,520.272868578269,3430.20940289597,0.25,0.08,0.96,264.01724050764,443.875298079933,3521.71656567609,0.78,0.08,0.96,377.324069395297,578.839337377547,3443.38570639429,0.25,0.08,0.96,360.847901338587,498.037236576818,3561.57222452533,0.78,0.08,0.96,-5.65886890844063,-86.8080282810158,3161.17337585694,0,0,0,5.19108868907513,-93.7855951704276,3174.61548486044,0.4,0.4,0.4
-27.8637659932871,-86.3940335268612,3192.10164396683,0.12,0.8,1,14.1228557399142,-43.3472474173507,3120.76424025637,0.56,0.9,1,72.1905155883782,-128.478297037157,3175.79076636405,0.56,0.9,1,103.150682959498,-42.5179452370536,3167.29970219011,0.1,0.66,0.03,-24.2617304938155,34.7111085254618,3219.77315935492,0.85,0.07,0.09,41.7485319534918,-101.529340030037,3268.20953649907,0.95,0.49,0.05,-110.012379825061,47.0650644267536,3270.63789056184,0.85,0.07,0.09,-34.2165917166548,-11.36545297938,3397.82300732987,0.95,0.49,0.05,-176.837209775619,-137.474939341904,3275.78068921769,0.85,0.07,0.09,-131.891872448378,-140.585116154965,3345.1380503987,0.95,0.49,0.05,300.924682272194,298.81396426809,3297.86277716556,0.1,0.66,0.03,415.185392920745,479.097294835092,3393.78250936366,0.96,0.94,0.08,250.151465401801,521.206772752958,3426.89999013894,0.25,0.08,0.96,263.954513092738,442.553246814929,3522.04102026328,0.78,0.08,0.96,379.250255585169,575.391838073297,3440.7380478099,0.25,0.08,0.96,363.278662459858,496.540473151598,3560.49226347343,0.78,0.08,0.96,-3.18695694725038,-84.6926129238514,3158.56613554055,0,0,0,8.02207517961598,-94.1375080515713,3173.72074300115,0.4,0.4,0.4
-26.2758738511258,-88.1981840322443,3189.08856556535,0.12,0.8,1,15.5096641032309,-43.7189519070898,3120.73838398585,0.56,0.9,1,72.7834735774425,-128.051847009171,3175.4072843822,0.56,0.9,1,105.666814398161,-40.9715545240207,3167.06954434578,0.1,0.66,0.03,-20.2930908014319,33.4261166200551,3221.98721843517,0.85,0.07,0.09,41.9929019837512,-99.879762941961,3266.69319253173,0.95,0.49,0.05,-109.899264125084,45.0897971416353,3271.88870636108,0.85,0.07,0.09,-29.6950660946893,-48.2335460594317,3394.02409071062,0.95,0.49,0.05,-175.036108908534,-135.967286114236,3275.09535101363,0.85,0.07,0.09,-132.138359920572,-138.297970286579,3346.0433566246,0.95,0.49,0.05,299.688339564447,300.754966980888,3297.59258357338,0.1,0.66,0.03,415.33594735963,481.015657434536,3394.77303737148,0.96,0.94,0.08,251.690250458534,519.746531763957,3425.88852782279,0.25,0.08,0.96,287.769504906307,360.66588510085,3511.27501471542,0.78,0.08,0.96,376.577221909294,575.67730238563,3442.02775522001,0.25,0.08,0.96,361.912928700215,499.440578911234,3560.05621294446,0.78,0.08,0.96,-0.0985491823272093,-83.358305753035,3155.48392101108,0,0,0,11.1610296262519,-95.7748693542805,3172.15172422017,0.4,0.4,0.4
-28.6672841005108,-89.0135465360519,3192.20884375098,0.12,0.8,1,13.8936997396678,-48.1607796259594,3121.35985233218,0.56,0.9,1,74.1042210759165,-130.03801043928,3179.22860460335,0.56,0.9,1,102.516730786058,-39.4678001520389,3170.5397338669,0.1,0.66,0.03,-22.9098076673512,31.8984360243819,3220.49962249559,0.85,0.07,0.09,104.797242541623,-15.0491551722454,3267.74084274893,0.95,0.49,0.05,-111.387913021193,45.9314021662101,3270.93085504621,0.85,0.07,0.09,-31.2919088897552,-51.0902145657504,3398.14602356866,0.95,0.49,0.05,-174.429194770153,-134.356541584296,3276.46130814638,0.85,0.07,0.09,-131.616451469449,-137.259542718743,3346.21542230016,0.95,0.49,0.05,298.412210907198,305.641922636334,3296.62762223111,0.1,0.66,0.03,415.748513069978,479.024704604574,3400.83826688824,0.96,0.94,0.08,249.914886661,521.773305886671,3427.05221333685,0.25,0.08,0.96,287.989991913072,360.101798558057,3513.17215852481,0.78,0.08,0.96,375.189353612636,578.498839979694,3443.86221510396,0.25,0.08,0.96,360.793157331223,500.927104581365,3561.49684274612,0.78,0.08,0.96,-1.12046509101186,-88.1515788217613,3159.46736928201,0,0,0,10.1437468958907,-97.3867521497789,3173.67362807725,0.4,0.4,0.4
-27.1134219883751,-90.3957589705581,3192.16583517873,0.12,0.8,1,13.2471123297725,-43.4313019237915,3122.19608482193,0.56,0.9,1,74.7701609588246,-129.915579797779,3180.41659006853,0.56,0.9,1,101.08790972653,-36.6606599987614,3171.93283408616,0.1,0.66,0.03,-21.4235900963603,28.182308301053,3217.91616468281,0.85,0.07,0.09,104.562095151972,-15.9652085058842,3267.75185621528,0.95,0.49,0.05,-113.097942774347,46.6460548086111,3268.77891418482,0.85,0.07,0.09,-29.6256576142191,-46.3226308557724,3398.33755330182,0.95,0.49,0.05,-173.075420109973,-136.954025778479,3276.10050755987,0.85,0.07,0.09,-132.780346991738,-137.704643429796,3345.9322453014,0.95,0.49,0.05,298.470502563193,303.610304130765,3299.50303226362,0.1,0.66,0.03,415.145244315003,477.921922733009,3399.67334552731,0.96,0.94,0.08,246.627607994931,522.771362120176,3428.67365933512,0.25,0.08,0.96,288.510950207954,359.683410670643,3513.91506084153,0.78,0.08,0.96,373.604333250376,577.005016824696,3445.12118887645,0.25,0.08,0.96,362.64116265605,502.466435126227,3562.94135980539,0.78,0.08,0.96,-1.17666353932765,-87.6954169591926,3160.17065128083,0,0,0,11.4727355224703,-97.4618033375284,3174.37436286807,0.4,0.4,0.4
-25.83077868839,-92.5284956680288,3187.56190926609,0.12,0.8,1,15.2578780555134,-45.5250565435935,3121.83100171782,0.56,0.9,1,112.075127712199,-100.532258983022,3180.84390176897,0.56,0.9,1,103.079569245254,-39.2240772556952,3172.72015554833,0.1,0.66,0.03,-20.5023978694755,21.7540107957845,3219.17539976244,0.85,0.07,0.09,99.6839484754662,-16.1850312278817,3271.92103095406,0.95,0.49,0.05,-113.376962469605,50.510431414006,3267.02592870266,0.85,0.07,0.09,-36.0092850085065,-62.4064897281308,3401.02706132902,0.95,0.49,0.05,-169.600989495385,-134.600143937553,3275.51161684335,0.85,0.07,0.09,-133.22442299525,-137.446210303769,3343.80022662958,0.95,0.49,0.05,297.136545211768,295.687926033107,3297.92458501288,0.1,0.66,0.03,415.919522427862,477.566099983903,3399.64246470136,0.96,0.94,0.08,248.680260742909,521.319753783788,3429.83319528463,0.25,0.08,0.96,291.491950576801,345.867635469395,3513.04419542678,0.78,0.08,0.96,373.89268465685,577.145371831401,3445.40063754559,0.25,0.08,0.96,363.223776333204,500.458287237178,3561.73284563398,0.78,0.08,0.96,0.309129838224916,-91.1190006827261,3156.62705377993,0,0,0,13.1136168036145,-107.645797098751,3172.16462700837,0.4,0.4,0.4
-27.0764658095519,-86.7219111640386,3184.48203047337,0.12,0.8,1,17.4924115356617,-46.3309797610704,3124.88994198024,0.56,0.9,1,71.7472885473886,-131.84938310525,3186.06796889032,0.56,0.9,1,101.820310267141,-41.1716027765248,3174.54675189898,0.1,0.66,0.03,-15.3724849112006,24.1635932070307,3217.82793302656,0.85,0.07,0.09,40.5746679997675,-107.014294460533,3270.61168261492,0.95,0.49,0.05,-114.000728654691,48.2598970573832,3268.20432448623,0.85,0.07,0.09,-38.557039150505,-68.8990526614698,3398.11676243851,0.95,0.49,0.05,-166.965914430238,-132.418490437134,3276.85215323905,0.85,0.07,0.09,-131.713547770419,-137.183065737101,3343.16146361122,0.95,0.49,0.05,295.668500220043,294.526397942979,3297.02363596376,0.1,0.66,0.03,413.852243407761,476.983715561876,3400.41590438724,0.96,0.94,0.08,245.390892413599,521.074740150369,3426.30970484085,0.25,0.08,0.96,286.188547476068,357.171488187801,3512.26340517644,0.78,0.08,0.96,374.112112278986,575.639296911351,3442.7814950824,0.25,0.08,0.96,361.324175447392,497.815884656437,3563.73000442421,0.78,0.08,0.96,-0.473300120675359,-88.6371855632772,3158.24454793915,0,0,0,11.0486001337792,-106.395879472212,3170.94623368726,0.4,0.4,0.4
-26.6360933536608,-86.9184356533242,3186.81058564363,0.12,0.8,1,14.2190029831662,-46.5711544837915,3120.30336082429,0.56,0.9,1,113.344787527634,-100.881411812981,3175.33538578328,0.56,0.9,1,102.902097715933,-39.5455905371839,3172.4077413232,0.1,0.66,0.03,-13.4332029916156,25.6672766829481,3217.16699737918,0.85,0.07,0.09,102.536044697487,-17.7746006905173,3268.96776033164,0.95,0.49,0.05,-115.649836350423,51.5424963703093,3265.24248239994,0.85,0.07,0.09,-15.0586340547545,-69.9143283019289,3395.09293585426,0.95,0.49,0.05,-165.043152636549,-128.62214669239,3276.10811791961,0.85,0.07,0.09,-109.635231514408,-113.698097159318,3345.98796303316,0.95,0.49,0.05,297.297209814944,292.737714919416,3298.79116950043,0.1,0.66,0.03,413.899671959461,475.482072950787,3398.96327736873,0.96,0.94,0.08,245.326903278574,521.138728283947,3424.69159731199,0.25,0.08,0.96,291.27622372253,341.927552040553,3513.65965498974,0.78,0.08,0.96,374.65436633946,574.700650375443,3442.85275879277,0.25,0.08,0.96,362.031191218131,502.977200866099,3562.33529963824,0.78,0.08,0.96,-0.112353473199053,-88.6898052148595,3156.53659486349,0,0,0,12.1310675929486,-99.4106152809636,3173.93039530648,0.4,0.4,0.4
-26.635816224695,-84.2449867939236,3185.40551202217,0.12,0.8,1,16.9959496228233,-48.5392138989261,3120.27914670754,0.56,0.9,1,107.515230687373,-103.295620763582,3177.36627900831,0.56,0.9,1,104.313024883228,-38.1714958687351,3173.50512622354,0.1,0.66,0.03,-16.6210321662577,31.0125067493866,3216.39741143868,0.85,0.07,0.09,37.1340804385287,-103.81021255783,3270.17700759715,0.95,0.49,0.05,-116.501212927095,54.4149822298896,3265.96918048375,0.85,0.07,0.09,-17.4058989067011,-69.7576951361452,3398.82025403406,0.95,0.49,0.05,-163.16013779911,-128.549005978695,3277.32614773078,0.85,0.07,0.09,-109.948072412462,-117.224731738152,3344.09201706689,0.95,0.49,0.05,298.00362172049,292.218594397862,3296.30604599586,0.1,0.66,0.03,415.218181041573,476.32716223988,3398.13946784605,0.96,0.94,0.08,246.75127614724,520.003556981733,3424.29024260383,0.25,0.08,0.96,287.476254499171,356.36057595792,3514.89456004468,0.78,0.08,0.96,374.522097995188,576.682317807847,3441.9484188261,0.25,0.08,0.96,363.197495651548,501.077931535623,3563.9682562244,0.78,0.08,0.96,-0.990566500056005,-87.6986809026192,3156.84285283595,0,0,0,10.9480522613318,-98.5731438941689,3171.84402062102,0.4,0.4,0.4
-28.0874016344699,-84.1353995511112,3184.23898338538,0.12,0.8,1,16.592132674877,-49.7678471306551,3117.426807423,0.56,0.9,1,106.497937493968,-104.898668106812,3175.05846454501,0.56,0.9,1,101.27667606008,-39.6742507613667,3173.36400399246,0.1,0.66,0.03,-16.9442842777141,26.2506265418778,3218.18506641377,0.85,0.07,0.09,97.6688173243641,-18.4728012655672,3267.83063096859,0.95,0.49,0.05,-118.328782328806,57.4907573324284,3265.04188513423,0.85,0.07,0.09,-18.3870235153534,-76.4356661196671,3394.93574897001,0.95,0.49,0.05,-163.392586792012,-127.439623152108,3273.60874259914,0.85,0.07,0.09,-109.833230351089,-124.197120934572,3340.48941108667,0.95,0.49,0.05,296.61129230906,292.017721873598,3293.76135711934,0.1,0.66,0.03,413.993014532984,476.945405484865,3396.22421365397,0.96,0.94,0.08,247.832890034708,519.868795978731,3424.41797110361,0.25,0.08,0.96,291.573547382925,347.522028413544,3514.49281793983,0.78,0.08,0.96,375.7058998673,577.131703030774,3443.8405123968,0.25,0.08,0.96,363.658277250869,502.940537448846,3563.03222984432,0.78,0.08,0.96,-0.910363500067947,-87.5203788419637,3151.8402962143,0,0,0,10.5162995580079,-98.0590941354788,3169.87253570723,0.4,0.4,0.4
-29.0831064568767,-82.3960502840303,3184.0524412774,0.12,0.8,1,17.0321961055943,-51.123968676641,3120.14840841973,0.56,0.9,1,106.386697969386,-106.538847695099,3180.21025867966,0.56,0.9,1,102.745122305065,-41.1719824682332,3175.26461620711,0.1,0.66,0.03,-20.0823645519225,25.4110331279199,3218.55216568008,0.85,0.07,0.09,96.7795994785853,-16.9624563996449,3272.43651412505,0.95,0.49,0.05,-119.955496466995,57.0371280500473,3265.01027109092,0.85,0.07,0.09,-21.2299534249371,-80.3225883085319,3388.22267201729,0.95,0.49,0.05,-161.309835885675,-127.825942343069,3272.90063054251,0.85,0.07,0.09,-113.281687331734,-141.789200043168,3327.66207050717,0.95,0.49,0.05,296.486191910039,292.378909582301,3295.72720874112,0.1,0.66,0.03,414.645672124362,476.738960548432,3400.03092783537,0.96,0.94,0.08,248.528280775532,518.980744996545,3425.76167035769,0.25,0.08,0.96,288.497102796388,359.700544516365,3518.09803359606,0.78,0.08,0.96,373.475685151958,576.941047767343,3445.38436439559,0.25,0.08,0.96,361.606077015404,500.781504000586,3560.45049230025,0.78,0.08,0.96,-0.702741184525956,-86.8738044507873,3154.20074309362,0,0,0,7.53080468313575,-94.9079177245123,3169.91386030581,0.4,0.4,0.4
-26.748811411276,-87.9182355528598,3180.97714385419,0.12,0.8,1,16.3653354243389,-50.8661836891868,3117.10679711376,0.56,0.9,1,106.279864705728,-106.533454534841,3178.56330015035,0.56,0.9,1,102.678417193565,-46.7786239196209,3173.51941312434,0.1,0.66,0.03,-17.4014814400298,25.8814216376158,3216.42112051023,0.85,0.07,0.09,98.8435598067834,-18.1362792818563,3270.62753685421,0.95,0.49,0.05,-117.728106199872,59.085564142067,3262.96027829431,0.85,0.07,0.09,-21.7440769784753,-87.056020771156,3386.65510988038,0.95,0.49,0.05,-157.689877934309,-127.992265509054,3273.42996455006,0.85,0.07,0.09,-111.673402055124,-140.792341744217,3324.5139469483,0.95,0.49,0.05,297.01391759477,288.222235519109,3297.28596540923,0.1,0.66,0.03,415.022913898801,473.469738770901,3401.39112520863,0.96,0.94,0.08,248.716522038139,521.143085888482,3426.09221428684,0.25,0.08,0.96,296.383215147636,325.783828047047,3513.69051882471,0.78,0.08,0.96,372.587867576783,575.888901610135,3443.35961964376,0.25,0.08,0.96,361.727567699339,499.903436565203,3559.79244374813,0.78,0.08,0.96,-0.0539846560345726,-91.3034462765317,3150.42400914827,0,0,0,8.98605999130666,-100.108972633766,3166.68904115997,0.4,0.4,0.4
-27.7157817666092,-94.3451169428771,3181.2888972146,0.12,0.8,1,17.8048164837236,-47.2810479306814,3117.85560858872,0.56,0.9,1,110.680530569768,-102.222598107335,3181.33698141312,0.56,0.9,1,99.8819325064316,-41.3442203539115,3170.53959661199,0.1,0.66,0.03,-19.7228892546511,28.950281257546,3216.38194252662,0.85,0.07,0.09,96.7950830450643,-18.4683457057129,3264.43350666244,0.95,0.49,0.05,-117.55134942538,54.9050963085617,3262.56018672909,0.85,0.07,0.09,-25.3437946266716,-87.9187798066308,3385.31462411079,0.95,0.49,0.05,-155.819835489982,-133.930881703061,3273.88292675236,0.85,0.07,0.09,-113.978456820354,-150.427304402204,3322.04584962531,0.95,0.49,0.05,296.906765090682,286.091405058737,3299.29870963866,0.1,0.66,0.03,412.490316909945,470.102966877812,3396.30411743372,0.96,0.94,0.08,251.515760395826,521.119663467024,3425.59994380049,0.25,0.08,0.96,263.723418151286,442.622197979461,3528.68439790052,0.78,0.08,0.96,368.792934383228,578.018153582731,3448.58834176109,0.25,0.08,0.96,363.929635556774,500.654800126264,3561.37751245348,0.78,0.08,0.96,-0.889953026971448,-91.2227446974367,3151.84627452354,0,0,0,7.79054498921055,-102.9342862355,3165.39118660479,0.4,0.4,0.4
-26.4127288246463,-95.2733380990007,3177.72992298541,0.12,0.8,1,22.1509422989952,-48.5529665981639,3114.71184664502,0.56,0.9,1,112.720268067942,-99.0025384616344,3177.91113865851,0.56,0.9,1,98.6896021858221,-39.2382124585087,3169.02479964508,0.1,0.66,0.03,-21.5022416766113,28.5599083444315,3212.79627660783,0.85,0.07,0.09,97.7788405241195,-14.4015880466524,3258.77158343667,0.95,0.49,0.05,-117.961280090745,57.2487891953036,3259.46514221613,0.85,0.07,0.09,-29.471088360974,-92.3438279195608,3377.48608402579,0.95,0.49,0.05,-160.521333367222,-131.606272928666,3278.01968061653,0.85,0.07,0.09,-108.059433716316,-156.473248307227,3318.28108635661,0.95,0.49,0.05,295.581895453679,289.017901634168,3301.37316313128,0.1,0.66,0.03,411.064244521075,469.876130131657,3396.13321408497,0.96,0.94,0.08,248.711542962887,516.316078710848,3424.32469304883,0.25,0.08,0.96,262.944106742417,441.970395008361,3528.49358808431,0.78,0.08,0.96,371.015987800388,573.314349480195,3446.38213055183,0.25,0.08,0.96,361.315792805771,504.82688728383,3561.74437645976,0.78,0.08,0.96,1.80557205467215,-89.7606086256692,3148.36438377255,0,0,0,10.0134941566384,-102.775694493607,3165.7466808985,0.4,0.4,0.4
-24.4025364720224,-99.4052657849681,3171.3064459574,0.12,0.8,1,15.0712942185166,-47.8317910855433,3114.07288891423,0.56,0.9,1,109.970404525431,-98.4328505056134,3176.28486050089,0.56,0.9,1,98.4939209982902,-36.290591006374,3169.76054252182,0.1,0.66,0.03,-22.3534246752107,25.162454876183,3212.63897387554,0.85,0.07,0.09,94.6323926535551,-17.2272513821801,3264.9231746638,0.95,0.49,0.05,-114.29486338486,59.6567450979834,3260.1714870017,0.85,0.07,0.09,-32.8501230219459,-93.1649043549841,3379.24410660693,0.95,0.49,0.05,-159.320781414259,-126.619219145647,3273.24772459312,0.85,0.07,0.09,-111.963133025857,-166.761108306251,3310.95740285643,0.95,0.49,0.05,295.190640334771,288.227260128936,3302.03190131883,0.1,0.66,0.03,410.070342982493,468.548204079104,3399.5626974857,0.96,0.94,0.08,248.540200213761,516.016141516223,3423.5493242397,0.25,0.08,0.96,261.162481962241,442.986894542582,3527.94824552741,0.78,0.08,0.96,370.736936807058,572.832729855285,3447.93974310331,0.25,0.08,0.96,362.34873683608,506.674879111671,3561.52805695674,0.78,0.08,0.96,1.6911710703997,-92.0291210842528,3144.60138854838,0,0,0,10.2818814110083,-104.285535868824,3160.66179263613,0.4,0.4,0.4
-25.54577664372,-96.7006774863819,3173.20960425683,0.12,0.8,1,20.6860737258914,-51.0962937811587,3116.32631607488,0.56,0.9,1,108.291445666301,-108.623912821587,3177.1185249089,0.56,0.9,1,100.540939799552,-42.2939462447438,3171.20600728375,0.1,0.66,0.03,-20.4800059576592,26.0182916870159,3213.97829720971,0.85,0.07,0.09,93.6887006078126,-20.3212094023236,3264.35837770629,0.95,0.49,0.05,-115.17115221202,59.5074100836057,3257.52911302521,0.85,0.07,0.09,-38.3130583948596,-94.5505122147258,3369.09970990695,0.95,0.49,0.05,-163.050084267327,-127.735413730681,3273.35271467039,0.85,0.07,0.09,-108.818669177036,-175.679982248684,3303.40007372612,0.95,0.49,0.05,295.377468799427,285.093178784174,3302.13175346234,0.1,0.66,0.03,407.212221039488,465.231025919034,3399.55477355002,0.96,0.94,0.08,248.159809883885,516.882919183014,3424.23589880225,0.25,0.08,0.96,261.361141079557,442.47573720637,3529.17765213264,0.78,0.08,0.96,366.964735057959,572.083764631434,3444.7917290478,0.25,0.08,0.96,364.110256382097,496.970241732523,3561.37729434711,0.78,0.08,0.96,3.08904900897327,-90.6150696480396,3140.07681110557,0,0,0,10.4779469328964,-104.797657587823,3158.94167586952,0.4,0.4,0.4
-28.9110631004996,-97.3961644365681,3172.25819735737,0.12,0.8,1,19.881343017453,-52.0010601576002,3114.30687386962,0.56,0.9,1,111.955981949778,-104.949890032198,3178.14257946198,0.56,0.9,1,99.2273168247088,-44.9486350911353,3169.90189607606,0.1,0.66,0.03,-22.1283833745766,25.9654438356389,3214.89758222805,0.85,0.07,0.09,89.7381251830234,-20.6000156254992,3262.18398130459,0.95,0.49,0.05,-113.921513818835,66.3385188870734,3254.07857296646,0.85,0.07,0.09,-42.8340810614863,-97.1046794266911,3368.69969575706,0.95,0.49,0.05,-165.451889633199,-127.475731417684,3270.36979571813,0.85,0.07,0.09,-108.03337733135,-180.467898090392,3294.2388287432,0.95,0.49,0.05,295.982816406587,285.834759660614,3305.96197003735,0.1,0.66,0.03,405.104950060978,463.446747804295,3399.37268575897,0.96,0.94,0.08,248.290022975718,514.692719836983,3423.69514432418,0.25,0.08,0.96,260.894645616965,443.361251123328,3528.17422100581,0.78,0.08,0.96,365.409775053165,572.363617618021,3443.28234002083,0.25,0.08,0.96,363.663104160514,500.853987895293,3562.0496041392,0.78,0.08,0.96,1.52613538853592,-89.1122380522607,3139.72961337115,0,0,0,9.35868001025519,-105.621931977839,3159.84795910173,0.4,0.4,0.4
-25.6451477145208,-100.363690105078,3169.08369174393,0.12,0.8,1,21.7524248678196,-51.7414031526548,3115.17392702515,0.56,0.9,1,112.292911485122,-102.681604793962,3176.24640907451,0.56,0.9,1,101.406940754602,-44.5267927792051,3170.16035401206,0.1,0.66,0.03,-23.6709479018942,21.4946361941838,3212.03260840473,0.85,0.07,0.09,87.3265390863313,-20.142899876144,3262.9428003779,0.95,0.49,0.05,-112.968876912972,63.6363456675525,3256.95429118256,0.85,0.07,0.09,-47.203859936385,-105.630109982051,3366.36681695377,0.95,0.49,0.05,-168.531875339211,-126.305648126931,3276.82218045342,0.85,0.07,0.09,-126.236338900219,-191.076652469093,3284.4477862339,0.95,0.49,0.05,295.804868961628,286.274096374802,3309.31843513724,0.1,0.66,0.03,402.525589080286,464.258278488802,3403.54589405771,0.96,0.94,0.08,249.289766888132,517.385321251992,3428.2813800489,0.25,0.08,0.96,260.527581511467,445.547750976566,3530.00860555568,0.78,0.08,0.96,370.441357493737,571.74093249952,3443.90715206272,0.25,0.08,0.96,361.280938904179,504.070697575884,3563.13561203443,0.78,0.08,0.96,3.70053154168624,-93.0418512884018,3139.39168234579,0,0,0,11.8752578501794,-110.756990566977,3159.95068378957,0.4,0.4,0.4
-26.4967152657654,-101.88486906242,3167.98732283924,0.12,0.8,1,23.4285310743376,-56.3718778956339,3113.79266492222,0.56,0.9,1,76.8410870998439,-138.973372116529,3179.25416103187,0.56,0.9,1,102.741147293224,-50.302484250048,3170.52716914292,0.1,0.66,0.03,-17.8573861721338,20.781860255255,3210.04113387445,0.85,0.07,0.09,5.5296210183182,-163.37033728034,3261.76948126613,0.95,0.49,0.05,-111.623941428716,66.16400713666,3252.22308404193,0.85,0.07,0.09,-52.7067538393833,-104.526171985692,3363.74403851382,0.95,0.49,0.05,-171.236751689295,-123.253150138365,3271.64397150582,0.85,0.07,0.09,-129.732797999546,-196.887569261934,3279.49947931845,0.95,0.49,0.05,294.117181368672,281.611558060333,3309.20117468872,0.1,0.66,0.03,400.177599931582,462.741057634581,3403.5615873886,0.96,0.94,0.08,246.573624814065,514.804725668653,3431.04412000628,0.25,0.08,0.96,260.20547535594,440.018633020083,3528.93810993063,0.78,0.08,0.96,367.172118602796,571.97089553453,3442.11522467871,0.25,0.08,0.96,360.453771333045,507.171641047978,3562.80921169429,0.78,0.08,0.96,4.33928801603674,-95.0876800518716,3137.28052280736,0,0,0,13.1930390121706,-116.918217455767,3159.22007958485,0.4,0.4,0.4
-24.3419337987671,-107.844676982441,3168.1475836323,0.12,0.8,1,24.3026003262705,-49.3724520009492,3110.49094941272,0.56,0.9,1,111.814813121643,-100.931601196629,3178.12208162896,0.56,0.9,1,99.5123023887367,-39.1608419044971,3170.38377477856,0.1,0.66,0.03,-18.7977679794822,16.4469021657872,3206.17185904029,0.85,0.07,0.09,90.6221666588271,-23.4225488619812,3256.17322382824,0.95,0.49,0.05,-110.023237060343,68.6721837970612,3252.59147896747,0.85,0.07,0.09,-53.9850181474923,-109.915485432368,3364.26726042451,0.95,0.49,0.05,-171.989862713007,-116.673712112534,3267.65151381009,0.85,0.07,0.09,-133.878830844727,-211.401958284377,3272.26800386477,0.95,0.49,0.05,294.565392697361,283.977774954448,3312.20382658065,0.1,0.66,0.03,397.753857642381,459.256617456793,3402.0387423032,0.96,0.94,0.08,246.30007890734,512.518152448089,3428.92648189999,0.25,0.08,0.96,260.184416658222,436.842143267898,3528.04135128379,0.78,0.08,0.96,366.59627740585,569.987080861537,3442.53252311974,0.25,0.08,0.96,359.81499494832,499.751422364634,3565.37034489225,0.78,0.08,0.96,3.10653652401074,-99.1672299555939,3135.10193279411,0,0,0,12.1250150532834,-115.911739989371,3157.48547399119,0.4,0.4,0.4
-24.7257797299302,-107.797100911124,3165.59678679905,0.12,0.8,1,27.064751368133,-49.3991531422047,3110.60263611909,0.56,0.9,1,111.467928882137,-105.053307628959,3178.93059912028,0.56,0.9,1,103.109875233108,-47.0920667859818,3171.09621835028,0.1,0.66,0.03,-20.0918404654227,20.0967639355021,3200.87097755935,0.85,0.07,0.09,-31.0889553338983,-200.984014358269,3256.92625919213,0.95,0.49,0.05,-103.835996996064,69.2403444539462,3251.91343324063,0.85,0.07,0.09,-58.5922747125187,-109.619823826668,3355.76555111074,0.95,0.49,0.05,-110.502747712465,-86.4034062706432,3347.89307844825,0.85,0.07,0.09,-145.412394247469,-225.561894568539,3275.02314335261,0.95,0.49,0.05,293.217795237644,285.044239734454,3317.06948737971,0.1,0.66,0.03,397.446483974197,458.313983833348,3399.05490231997,0.96,0.94,0.08,247.616854880607,512.225971949576,3425.88268779443,0.25,0.08,0.96,264.887224246906,417.580530145375,3524.88020592296,0.78,0.08,0.96,365.195381877782,568.676086192648,3440.64625804785,0.25,0.08,0.96,360.55131718653,502.455619163911,3563.76161710251,0.78,0.08,0.96,2.45914531237272,-96.6307031873021,3136.22441031798,0,0,0,12.7027220508116,-115.56188351527,3153.10250852685,0.4,0.4,0.4
-24.6769652863052,-109.74926873397,3166.98263002018,0.12,0.8,1,27.7779992766034,-53.3957093298712,3108.21146559439,0.56,0.9,1,110.95423484399,-105.184903348717,3176.08817888772,0.56,0.9,1,102.538334086134,-47.449902837724,3169.88278375056,0.1,0.66,0.03,25.6678007820935,37.0756348950866,3240.42828229039,0.85,0.07,0.09,-32.6104915474046,-219.896035857515,3254.50652087863,0.95,0.49,0.05,-104.280422048725,74.2162344954584,3247.18219033146,0.85,0.07,0.09,-66.5178764910374,-111.663284898772,3343.05542325742,0.95,0.49,0.05,-111.811254191191,-84.5465631627389,3341.44552112076,0.85,0.07,0.09,-140.971987899349,-247.164353856111,3263.56929199512,0.95,0.49,0.05,289.911317891788,285.339334646629,3310.08211244495,0.1,0.66,0.03,393.925861957414,457.880080911204,3401.32649935165,0.96,0.94,0.08,245.677676506497,511.039268545257,3427.2473664732,0.25,0.08,0.96,258.25483352206,438.426973297219,3527.93704686998,0.78,0.08,0.96,363.379177004846,566.998508475806,3439.4872915189,0.25,0.08,0.96,361.372100347051,501.467127943528,3562.90624407649,0.78,0.08,0.96,3.46514940229141,-98.9984159976997,3137.06082527548,0,0,0,13.4807184134811,-120.268499268934,3152.37574514835,0.4,0.4,0.4
-22.7651168490787,-116.714235756194,3162.81149333036,0.12,0.8,1,26.4958059948432,-54.5785897244264,3107.7385101169,0.56,0.9,1,107.301976040205,-101.889037854961,3174.4966376248,0.56,0.9,1,98.6855148676144,-37.5415422601628,3169.09156667965,0.1,0.66,0.03,-24.3067924419854,12.0754361473297,3200.85726236425,0.85,0.07,0.09,84.5773138311278,-22.270243710463,3253.98963634721,0.95,0.49,0.05,-107.12405109978,69.1524902744339,3245.94400297613,0.85,0.07,0.09,-60.9242461632864,-115.385704616455,3338.17208543848,0.95,0.49,0.05,-128.687751558231,-89.0605740602908,3256.20440342461,0.85,0.07,0.09,-139.920792987545,-253.335718662731,3259.52817477212,0.95,0.49,0.05,293.595563708388,288.101141111224,3318.78665673639,0.1,0.66,0.03,393.256977235133,454.069867856824,3402.71261744978,0.96,0.94,0.08,245.647752584303,513.555627011154,3423.58391755081,0.25,0.08,0.96,261.810814581768,416.332824532124,3523.14247163551,0.78,0.08,0.96,360.867470146907,568.200065395911,3438.40699612005,0.25,0.08,0.96,361.383252936987,496.42056205507,3564.1991463896,0.78,0.08,0.96,2.63920296528789,-102.44177874345,3134.63822376738,0,0,0,11.7183466559896,-121.663374471155,3149.07684683586,0.4,0.4,0.4
-24.4913899768425,-114.270031851495,3167.86351242434,0.12,0.8,1,28.2065780939214,-55.8564032854816,3107.85307426476,0.56,0.9,1,109.779777426777,-104.23916034671,3174.6389907716,0.56,0.9,1,98.8132414838786,-36.0537383566919,3168.94777659067,0.1,0.66,0.03,14.0972860793051,27.0225032421765,3249.12169061538,0.85,0.07,0.09,85.8762754178317,-21.1304233187997,3252.9082968935,0.95,0.49,0.05,-108.7296576336,76.8096332015904,3247.44005940915,0.85,0.07,0.09,-60.7344453170566,-132.269625181924,3326.19964532467,0.95,0.49,0.05,-125.918968357054,-90.3521384450597,3253.45553835674,0.85,0.07,0.09,-156.864503204655,-264.991351678279,3248.95972583159,0.95,0.49,0.05,293.280288277389,285.513628348016,3322.06099649341,0.1,0.66,0.03,389.599899740371,453.108478510159,3399.8827962727,0.96,0.94,0.08,246.584196649342,509.830349703658,3426.50962710574,0.25,0.08,0.96,258.131305725902,416.648787976487,3521.99304604364,0.78,0.08,0.96,362.948112171308,564.189936540517,3437.58081730011,0.25,0.08,0.96,361.708791885438,495.934575368827,3561.31220177417,0.78,0.08,0.96,5.52379229138083,-103.368690556285,3136.59748937094,0,0,0,11.9869404622855,-124.920035001153,3149.04407592527,0.4,0.4,0.4
-21.09211362027,-123.91596010691,3163.72983143969,0.12,0.8,1,23.9667461072175,-52.9416560184916,3104.4098535608,0.56,0.9,1,110.865894021802,-106.236878079967,3172.09414895827,0.56,0.9,1,97.5957088035803,-35.418605129455,3170.75207165268,0.1,0.66,0.03,-35.1415620205801,5.04969547727774,3170.08208836466,0.85,0.07,0.09,85.7604216932962,-16.580677759281,3254.03572722391,0.95,0.49,0.05,-110.668272316199,65.8251570133979,3250.58542476768,0.85,0.07,0.09,-60.3797225565179,-138.099833721921,3319.79931060231,0.95,0.49,0.05,-125.622464718833,-89.8375160296607,3251.48247557193,0.85,0.07,0.09,-159.690576300058,-265.524450057823,3240.14101029056,0.95,0.49,0.05,289.780288208365,285.924099325304,3317.68645733353,0.1,0.66,0.03,383.941892041384,453.11406563504,3405.93432058574,0.96,0.94,0.08,244.457259695761,506.528682885787,3432.69146681741,0.25,0.08,0.96,250.438000336355,470.585675535814,3531.72831379174,0.78,0.08,0.96,364.572395492993,558.328691573968,3437.88458570352,0.25,0.08,0.96,361.703081616174,494.748143190131,3565.51828640705,0.78,0.08,0.96,7.10027465971755,-104.929427122484,3133.90657735955,0,0,0,15.6355004847669,-126.61525230917,3145.36066746678,0.4,0.4,0.4
-20.7100071122111,-127.746455310471,3160.78187317999,0.12,0.8,1,25.6821070448002,-57.1435558575482,3106.70228522706,0.56,0.9,1,108.497399121684,-109.298657713827,3173.25337826233,0.56,0.9,1,97.7410617634394,-39.8823548371159,3170.163786468,0.1,0.66,0.03,-15.7817683544172,8.5599406117499,3233.51572573144,0.85,0.07,0.09,-24.092674811053,-212.843739456488,3249.98967162008,0.95,0.49,0.05,-104.433236862065,78.815982751462,3251.1317538531,0.85,0.07,0.09,-65.0938128326427,-139.650919827148,3313.47872389478,0.95,0.49,0.05,-124.71861470814,-88.3631730794413,3247.99219166553,0.85,0.07,0.09,-168.416296540363,-271.335160939665,3227.75873317044,0.95,0.49,0.05,289.131073705152,281.66182679323,3318.62430272239,0.1,0.66,0.03,381.692335749815,451.420977772807,3415.45864008815,0.96,0.94,0.08,242.521768645294,504.509896913314,3431.83748783568,0.25,0.08,0.96,254.552195863879,442.260015838113,3527.99330854816,0.78,0.08,0.96,364.326452060114,558.417398108934,3434.31067383115,0.25,0.08,0.96,357.928481402892,496.094277791417,3567.97019425723,0.78,0.08,0.96,6.87026107138096,-107.328947203532,3130.45029574323,0,0,0,13.5509870233786,-129.312994655746,3142.89252031688,0.4,0.4,0.4
-21.6967714681951,-128.223951176894,3159.77243597896,0.12,0.8,1,26.092418876516,-58.7350606180534,3104.89359721711,0.56,0.9,1,112.460041711324,-121.814784684985,3169.74837322452,0.56,0.9,1,97.1967669215858,-35.5152334431107,3163.80190100409,0.1,0.66,0.03,51.0494341839266,37.2314785403866,3169.95296379723,0.85,0.07,0.09,77.7158496907513,-23.0747662828117,3249.68303462404,0.95,0.49,0.05,-102.421079340877,76.4057307476979,3254.99547925164,0.85,0.07,0.09,-70.1885194260344,-145.40603062306,3309.66351550718,0.95,0.49,0.05,-122.108799459697,-87.0548825252756,3247.911494996,0.85,0.07,0.09,-174.586755750599,-278.534504889717,3220.44291570996,0.95,0.49,0.05,287.730230336603,281.986415926994,3320.39467259328,0.1,0.66,0.03,380.007609646056,456.341731863438,3419.85559372793,0.96,0.94,0.08,241.008157529371,503.67773192248,3439.39108185256,0.25,0.08,0.96,250.794804775891,461.487994064703,3528.50723688295,0.78,0.08,0.96,360.102581162316,561.060663306656,3442.13465463141,0.25,0.08,0.96,360.691375343882,494.595417722962,3568.46022354517,0.78,0.08,0.96,7.03231960036135,-108.230745923021,3127.08230073163,0,0,0,14.4932092522345,-130.02724113077,3140.48088583186,0.4,0.4,0.4
-21.6297838160498,-131.749693517314,3157.9303863024,0.12,0.8,1,26.7554501186445,-62.6152777990601,3102.15832750619,0.56,0.9,1,108.558967033712,-109.894045881708,3168.92039247531,0.56,0.9,1,97.1481548484399,-39.8423775948276,3168.63630171087,0.1,0.66,0.03,50.82159055178,29.7177453571729,3168.8458553434,0.85,0.07,0.09,77.6541904957863,-25.6155831835989,3247.38532346108,0.95,0.49,0.05,-117.075502630796,73.8605510161036,3256.59154101037,0.85,0.07,0.09,-70.40334368422,-151.152249655208,3299.5476998343,0.95,0.49,0.05,-111.828858878963,-85.7375581852784,3277.08557891788,0.85,0.07,0.09,-179.243159818942,-275.464168917239,3219.5657226632,0.95,0.49,0.05,285.391731716379,277.341083414651,3318.31820747988,0.1,0.66,0.03,375.452286836952,456.261054255306,3425.0744481826,0.96,0.94,0.08,240.766815431776,506.463746175957,3440.6847265601,0.25,0.08,0.96,250.610574196169,460.324512418777,3529.11341707681,0.78,0.08,0.96,357.182220285495,560.171637271897,3442.85344849993,0.25,0.08,0.96,359.220970864193,498.774666926789,3570.50191127605,0.78,0.08,0.96,7.88903259814726,-111.434409441624,3125.86267816851,0,0,0,12.8203260860305,-130.773283047979,3140.76698585792,0.4,0.4,0.4
-19.4317770780315,-131.812630604351,3154.55386477971,0.12,0.8,1,30.0079005061161,-64.8968698860781,3100.64722610269,0.56,0.9,1,115.596813959962,-125.286157107558,3167.98079333794,0.56,0.9,1,95.3266061016795,-50.6132527228268,3162.01304721988,0.1,0.66,0.03,-19.9135056816046,5.08269580874171,3235.83043606788,0.85,0.07,0.09,79.6463174282752,-29.655358048044,3246.91633803193,0.95,0.49,0.05,-117.626443670641,75.7061713721113,3261.12875197038,0.85,0.07,0.09,-71.0428132633474,-155.209744496425,3304.38039981582,0.95,0.49,0.05,-185.344708574465,-117.673156110742,3245.26539952659,0.85,0.07,0.09,-183.952352072822,-271.996750766797,3219.29897219304,0.95,0.49,0.05,284.868771635245,281.469764763088,3322.49056624683,0.1,0.66,0.03,374.541909870869,453.790618277879,3423.21559252612,0.96,0.94,0.08,243.116801496623,506.648923848431,3442.02816975841,0.25,0.08,0.96,256.334385624107,409.566780054785,3524.93633497684,0.78,0.08,0.96,357.893388286429,561.606504937349,3445.03451116554,0.25,0.08,0.96,357.651194621456,497.976345193673,3571.62276249506,0.78,0.08,0.96,8.62870104276108,-111.433981867687,3124.87988714328,0,0,0,13.953806748465,-132.092027482553,3141.39338333305,0.4,0.4,0.4
-18.0051648230093,-134.97596880465,3153.43878779344,0.12,0.8,1,30.0843342844288,-67.0878694228335,3100.48521360737,0.56,0.9,1,114.677666021323,-128.160486779621,3166.71687785436,0.56,0.9,1,95.6931354343608,-49.661116327632,3164.14172467449,0.1,0.66,0.03,49.9395883335846,28.210720611442,3165.87570314128,0.85,0.07,0.09,77.1998557475115,-26.9386394536589,3246.07973740775,0.95,0.49,0.05,-129.60301939571,72.7778823988465,3276.1552674392,0.85,0.07,0.09,-78.4093952368925,-149.280745866818,3302.37872293137,0.95,0.49,0.05,-196.170956825751,-122.76197464683,3218.84041045182,0.85,0.07,0.09,-188.437784966108,-268.744558354465,3220.46078081984,0.95,0.49,0.05,279.324907230225,278.955662091308,3328.14215420839,0.1,0.66,0.03,369.049454285035,449.3129128693,3431.38130476717,0.96,0.94,0.08,245.32889655845,509.721937342048,3453.25631287384,0.25,0.08,0.96,255.541931987132,414.770321154223,3526.50249937162,0.78,0.08,0.96,358.35630044407,559.238678494827,3446.97135147851,0.25,0.08,0.96,358.299733462499,495.6547234864,3569.42947596915,0.78,0.08,0.96,10.6352208399168,-114.069839925823,3122.61836369194,0,0,0,14.3508137738647,-133.909086190375,3136.94288840774,0.4,0.4,0.4
-18.2836956859006,-136.464451274967,3154.23545720684,0.12,0.8,1,31.5952676084017,-66.2410314781128,3099.36734474224,0.56,0.9,1,114.486839422105,-131.412174209897,3166.38293963945,0.56,0.9,1,97.9052075055813,-51.0351525261259,3163.9236154278,0.1,0.66,0.03,50.4660950934281,27.8830282968544,3163.0913943371,0.85,0.07,0.09,76.9327367016316,-28.7290993743539,3241.09432646597,0.95,0.49,0.05,-126.975366672139,72.2642679551509,3277.62563303773,0.85,0.07,0.09,-79.8859410480332,-148.963452386651,3294.80362769779,0.95,0.49,0.05,-192.488689122464,-123.205599894999,3217.53186589275,0.85,0.07,0.09,-184.687140152207,-265.604808216008,3220.06366462903,0.95,0.49,0.05,279.499757321033,280.503966500017,3326.47985192934,0.1,0.66,0.03,367.128709680828,449.325969161292,3431.81900573812,0.96,0.94,0.08,244.339575814618,509.546406840729,3456.93771614293,0.25,0.08,0.96,257.358532375445,415.00409843672,3526.90695680835,0.78,0.08,0.96,357.158270848312,555.94878277216,3447.06932345853,0.25,0.08,0.96,359.831508968431,497.224222825705,3571.80374774506,0.78,0.08,0.96,10.5962646834151,-116.03226588602,3121.19617861883,0,0,0,11.7631553598445,-136.622421076165,3143.88512540547,0.4,0.4,0.4
-18.4911868198144,-141.881757366488,3153.42554193908,0.12,0.8,1,26.4854379202592,-66.9244897531414,3098.24322872805,0.56,0.9,1,113.237264995044,-128.161740710384,3164.16511040757,0.56,0.9,1,95.6286472488015,-46.9809745121297,3160.57515815234,0.1,0.66,0.03,49.6663854549718,29.6969356647057,3162.64055924173,0.85,0.07,0.09,78.5939735386885,-28.2723581908008,3236.16799020985,0.95,0.49,0.05,-127.198807119779,70.0468115904686,3275.48147821706,0.85,0.07,0.09,-83.0766391419615,-148.893376607537,3298.95611591316,0.95,0.49,0.05,-193.750881389077,-120.877405752152,3221.60600840387,0.85,0.07,0.09,-183.17803912012,-256.001662312609,3217.74970500682,0.95,0.49,0.05,277.951743413291,279.922255233815,3327.6941091451,0.1,0.66,0.03,366.341879647101,447.592571433117,3433.53762649287,0.96,0.94,0.08,246.266191291922,511.147123224303,3456.54632088903,0.25,0.08,0.96,258.192819665669,414.837280679334,3525.90459043471,0.78,0.08,0.96,354.798042171115,557.077404318564,3451.63054258364,0.25,0.08,0.96,360.445976195003,509.836158341484,3568.71078563464,0.78,0.08,0.96,10.3707562864822,-122.497772884505,3123.39895987588,0,0,0,15.163323976257,-138.236804150873,3138.8969184257,0.4,0.4,0.4
-19.6744850188571,-141.102017017592,3149.5173542429,0.12,0.8,1,26.7835261581698,-68.7411582923699,3097.55093646135,0.56,0.9,1,112.17917957469,-129.148009936649,3163.20764623234,0.56,0.9,1,97.2136682945434,-52.3519166728106,3159.58518584294,0.1,0.66,0.03,51.2031666637103,25.684176655422,3163.55372729734,0.85,0.07,0.09,78.3132337635299,-31.57290561586,3235.02595803906,0.95,0.49,0.05,-129.101424943092,66.1497870228573,3272.79172035755,0.85,0.07,0.09,-90.3973632125266,-146.528909975636,3295.54141239155,0.95,0.49,0.05,-191.089266706155,-122.465811575327,3221.31794957955,0.85,0.07,0.09,-183.418571502107,-248.95858492171,3216.16722347833,0.95,0.49,0.05,278.731391948398,278.212686908562,3327.85388395285,0.1,0.66,0.03,364.148385454865,448.331713087294,3431.37926508831,0.96,0.94,0.08,244.062851285053,505.963937529807,3458.64821584713,0.25,0.08,0.96,257.319527871186,414.880266905078,3527.25007629141,0.78,0.08,0.96,352.670929187547,557.46992597593,3456.47664240688,0.25,0.08,0.96,358.327663204358,503.446494437908,3571.36515382324,0.78,0.08,0.96,9.90231224888645,-124.1506194198,3119.34103305791,0,0,0,13.8179234101988,-140.363982712643,3135.33271868776,0.4,0.4,0.4
-21.2460584462756,-140.475472678884,3153.13983284506,0.12,0.8,1,25.4953972828536,-69.1068215964557,3099.57864354362,0.56,0.9,1,112.820274541284,-130.622385008453,3165.8056436107,0.56,0.9,1,99.3167332057737,-52.0657762080298,3160.33946961245,0.1,0.66,0.03,-18.98300487205,1.54327852555796,3229.00893768188,0.85,0.07,0.09,80.7385979672799,-29.0557504017714,3239.88510994525,0.95,0.49,0.05,-125.568763918954,68.2576744448979,3273.80949838531,0.85,0.07,0.09,-89.7950270871139,-147.138519391963,3299.58277607002,0.95,0.49,0.05,-137.940285402035,-97.0371843434382,3259.33475235531,0.85,0.07,0.09,-187.51902548742,-243.066135966297,3219.96189448079,0.95,0.49,0.05,277.395282331109,280.44781965991,3331.67185333765,0.1,0.66,0.03,360.820966669146,448.238882167195,3435.12346855112,0.96,0.94,0.08,243.580570652081,505.66046754839,3461.90901081783,0.25,0.08,0.96,261.17157013255,421.52569221307,3528.80505523799,0.78,0.08,0.96,351.025246392185,558.264846703803,3456.40173253687,0.25,0.08,0.96,361.261460201085,497.729381834134,3571.16123797797,0.78,0.08,0.96,9.36936279784677,-125.449229651428,3120.53141301936,0,0,0,14.9243174590194,-140.988269185721,3137.19857633121,0.4,0.4,0.4
-20.7447069470381,-142.494535129685,3150.7332632569,0.12,0.8,1,26.8076624345548,-71.1588100785897,3096.70767501729,0.56,0.9,1,113.207243970283,-131.17249728625,3163.36664708582,0.56,0.9,1,98.4188760288055,-50.6536497472938,3158.6425190644,0.1,0.66,0.03,-18.8895345056335,2.502804199989,3227.97408170947,0.85,0.07,0.09,82.0854597720543,-27.5071316056843,3240.7509686032,0.95,0.49,0.05,-126.245009577621,69.9703614451605,3276.13065677799,0.85,0.07,0.09,-91.3380968760358,-141.333973669923,3297.56515740419,0.95,0.49,0.05,-128.993854412459,-92.4682008165915,3247.23350714966,0.85,0.07,0.09,-187.093220465913,-238.179584918768,3218.50872813756,0.95,0.49,0.05,277.758932560505,280.811113177857,3334.99214998087,0.1,0.66,0.03,362.343714850408,448.777309584026,3432.78140467744,0.96,0.94,0.08,244.385434465248,506.674006383694,3458.17607858837,0.25,0.08,0.96,257.783706050849,423.177562939874,3529.60946171114,0.78,0.08,0.96,351.562706695752,556.865025667319,3450.31163336508,0.25,0.08,0.96,359.48855539645,500.228469237042,3570.64100411521,0.78,0.08,0.96,9.82637365265671,-127.297624485699,3118.86079138153,0,0,0,14.8377481367772,-143.767089341437,3135.5899212466,0.4,0.4,0.4
-21.9812720843047,-142.881146482261,3148.3603123114,0.12,0.8,1,29.823074188698,-74.0671876460796,3096.69872320075,0.56,0.9,1,111.312448436505,-133.743076603513,3163.94861178741,0.56,0.9,1,97.8775988524375,-51.4251380426072,3159.89340160968,0.1,0.66,0.03,-26.9212625235518,-3.07451804730307,3157.35845212958,0.85,0.07,0.09,79.90497210375,-26.2636278441026,3240.06669789383,0.95,0.49,0.05,-103.084088964955,79.480633984097,3242.29009409893,0.85,0.07,0.09,-94.750232052102,-138.931383445034,3300.85700672677,0.95,0.49,0.05,-181.891932788981,-119.250004380051,3226.98283111785,0.85,0.07,0.09,-185.729490716279,-233.706822049426,3220.96448967579,0.95,0.49,0.05,275.890499564504,284.894760768508,3327.95612797845,0.1,0.66,0.03,356.607861596478,450.711758438995,3436.86911232157,0.96,0.94,0.08,240.208316327668,501.778268554169,3459.58069357071,0.25,0.08,0.96,259.512242178654,424.185292995887,3530.13667089449,0.78,0.08,0.96,348.257778674401,559.967904869265,3453.97903082836,0.25,0.08,0.96,362.901768224837,498.946647637796,3568.40466641223,0.78,0.08,0.96,10.6095176381769,-128.394132285634,3119.35324348627,0,0,0,13.6922229143679,-145.836920895616,3135.39981375201,0.4,0.4,0.4
-20.0886506316958,-138.039895593614,3150.612186689,0.12,0.8,1,32.7874137906837,-75.167571794018,3096.52672073335,0.56,0.9,1,111.123392145626,-134.692606409629,3165.6023215621,0.56,0.9,1,101.508571262891,-52.8989180551883,3159.93809383973,0.1,0.66,0.03,-18.6977375150897,-0.921298323027301,3205.43085539638,0.85,0.07,0.09,86.3912979990499,-20.7719165151428,3235.98859646599,0.95,0.49,0.05,-102.404406216634,74.289243855429,3241.63103138267,0.85,0.07,0.09,-87.2432875310373,-136.101534570575,3303.44063628072,0.95,0.49,0.05,-182.220995452843,-113.827066950849,3225.654407506,0.85,0.07,0.09,-186.177652153188,-229.155083501453,3222.50618043614,0.95,0.49,0.05,277.664709366867,279.0175032626,3334.33740533541,0.1,0.66,0.03,357.705235630737,453.2232453521,3439.91491455403,0.96,0.94,0.08,239.103817537477,505.460839152591,3462.78561418587,0.25,0.08,0.96,257.350111966881,416.588227278245,3524.36858068364,0.78,0.08,0.96,349.21729046782,555.716000884498,3454.38404310205,0.25,0.08,0.96,362.037913921596,506.889882924795,3569.15006515609,0.78,0.08,0.96,11.737896464138,-125.178383698645,3119.4756888962,0,0,0,15.6215747721898,-142.922455681985,3137.70094346141,0.4,0.4,0.4
-21.206660999431,-142.188777760401,3148.90562407208,0.12,0.8,1,31.9168111482124,-74.3106613328432,3097.7285660282,0.56,0.9,1,112.235340177093,-134.118190614239,3164.46417453787,0.56,0.9,1,99.5105666254683,-47.1307252975281,3166.17250033591,0.1,0.66,0.03,-31.5733900281595,-12.0944398941778,3183.98657395357,0.85,0.07,0.09,83.175534088692,-20.9980429540358,3238.96672239275,0.95,0.49,0.05,-105.26712542999,81.1611169481461,3240.93717015525,0.85,0.07,0.09,-96.2498998920554,-133.801892392038,3299.55471705568,0.95,0.49,0.05,-184.488244282805,-115.53490263663,3225.46227416925,0.85,0.07,0.09,-184.61677567142,-219.92567072499,3222.03884940446,0.95,0.49,0.05,276.708206680919,284.320241878797,3330.48213131989,0.1,0.66,0.03,356.131526892303,449.022160889453,3435.00113185307,0.96,0.94,0.08,236.579851498141,502.651005665273,3460.60473780565,0.25,0.08,0.96,257.831358096923,417.158285675874,3525.22519737692,0.78,0.08,0.96,351.73730635292,557.647173354456,3457.28713440929,0.25,0.08,0.96,360.193890480955,493.472500585681,3567.90655133525,0.78,0.08,0.96,11.1215368516821,-130.48044187559,3120.75508767936,0,0,0,13.3824696108238,-144.564079015883,3138.04476159585,0.4,0.4,0.4
-20.660137844736,-146.462946383173,3153.91299719159,0.12,0.8,1,30.5614083528934,-79.0304149028435,3101.18891895184,0.56,0.9,1,112.543673032991,-132.019360947666,3169.90277839808,0.56,0.9,1,96.1995211588052,-45.7416799725712,3163.61902772491,0.1,0.66,0.03,-27.4193770285772,-9.98640694958636,3156.78082233615,0.85,0.07,0.09,81.463822367967,-22.0263176223522,3245.24766652933,0.95,0.49,0.05,-104.379339754513,82.244213696309,3239.56133926186,0.85,0.07,0.09,-93.8225924327175,-132.442295978432,3306.8983838476,0.95,0.49,0.05,-187.180808231982,-111.216622646479,3228.80553573639,0.85,0.07,0.09,-185.747395134437,-222.945899140454,3222.20210074302,0.95,0.49,0.05,275.994664929325,283.18697485958,3330.12092411614,0.1,0.66,0.03,352.891432566675,449.769214726246,3433.11423842321,0.96,0.94,0.08,236.827084982686,501.215799855225,3459.21370916999,0.25,0.08,0.96,257.325745471178,422.530056790148,3527.26936795916,0.78,0.08,0.96,349.964699111532,558.051025328461,3453.93489782389,0.25,0.08,0.96,363.668678303385,507.284239557428,3571.05069087028,0.78,0.08,0.96,8.61706708909984,-124.91468652998,3124.40470750239,0,0,0,12.8664564012736,-148.012831260012,3139.66406277401,0.4,0.4,0.4
-20.0451107043378,-146.558511983449,3151.69622057159,0.12,0.8,1,31.3461843075509,-81.3116911155577,3100.55289675597,0.56,0.9,1,112.230218485613,-132.904725846795,3170.08574050948,0.56,0.9,1,96.6091712302665,-46.1225874595423,3170.43153479204,0.1,0.66,0.03,-32.2425828052614,-18.7350577606903,3203.22791225357,0.85,0.07,0.09,80.3946598249777,-22.4555225941596,3244.63801072911,0.95,0.49,0.05,-100.044817737202,80.1954001997219,3234.21767445673,0.85,0.07,0.09,-89.238774035798,-129.870818501947,3302.99403197006,0.95,0.49,0.05,-134.917375115335,-86.5141557871761,3238.23133145641,0.85,0.07,0.09,-186.908820182288,-220.650267945352,3223.01200251474,0.95,0.49,0.05,276.490292947701,281.104885164838,3331.1417313563,0.1,0.66,0.03,355.190049509716,447.036195997361,3430.4264258438,0.96,0.94,0.08,235.688354896123,497.784893623882,3454.09611973243,0.25,0.08,0.96,255.748297702127,416.851968862238,3525.38693656232,0.78,0.08,0.96,348.031643956559,556.228705518975,3444.14137888529,0.25,0.08,0.96,363.252901784793,505.618404408979,3567.7641195122,0.78,0.08,0.96,10.0327929030436,-126.539987324613,3123.15452096106,0,0,0,14.321956806917,-150.374932319923,3138.27927147692,0.4,0.4,0.4
-20.6989335846067,-149.069470411589,3156.36531505188,0.12,0.8,1,29.5353478745096,-72.264112810487,3101.27870129977,0.56,0.9,1,112.618085261366,-132.972405370626,3172.15479610775,0.56,0.9,1,94.9518377171465,-48.5690726469051,3169.21344765941,0.1,0.66,0.03,-37.6557277635697,-25.591535417664,3173.36588991142,0.85,0.07,0.09,79.8325721386289,-24.1484994518583,3246.18084665369,0.95,0.49,0.05,-105.828529916322,86.1819343314769,3239.38340377864,0.85,0.07,0.09,-86.4304859922375,-130.519832819716,3310.05254504276,0.95,0.49,0.05,-189.732354345673,-109.325114308466,3227.62055789713,0.85,0.07,0.09,-187.95237480739,-218.335263322983,3223.27182969838,0.95,0.49,0.05,271.530709480004,280.687273596734,3326.76333754293,0.1,0.66,0.03,354.525546440069,450.453821045233,3432.06844119574,0.96,0.94,0.08,234.734623252071,497.176594202257,3455.76077305368,0.25,0.08,0.96,253.8098790542,429.562637566068,3526.92296548994,0.78,0.08,0.96,348.409318271144,558.117588006966,3454.65238995832,0.25,0.08,0.96,363.888159147393,508.657843551939,3568.42854473535,0.78,0.08,0.96,11.1598795182222,-128.114035368739,3126.6043576916,0,0,0,13.2124920117224,-151.676627385804,3142.44849592957,0.4,0.4,0.4
-19.7617935605758,-149.558899960829,3158.99142583965,0.12,0.8,1,29.3647065021277,-75.2491176290497,3102.73843634611,0.56,0.9,1,113.908455391514,-132.843209661963,3174.72628784158,0.56,0.9,1,96.9392546317614,-48.7894977612578,3168.31373173327,0.1,0.66,0.03,-36.6311133296322,-26.6524397289674,3170.9813654552,0.85,0.07,0.09,79.2506174739411,-24.3245105241652,3247.06851503117,0.95,0.49,0.05,-104.601253499186,86.2930149015494,3238.76545072737,0.85,0.07,0.09,-82.3447899165337,-130.038725135515,3309.29845745789,0.95,0.49,0.05,-187.237720361864,-109.015360855227,3234.911593729,0.85,0.07,0.09,-184.310235128904,-213.34248900491,3228.68308744908,0.95,0.49,0.05,271.503654105552,282.465101708296,3327.42003218146,0.1,0.66,0.03,356.052199204269,448.558839794737,3426.3918519859,0.96,0.94,0.08,234.85691479422,497.646319511662,3456.0893695885,0.25,0.08,0.96,253.903824763721,427.312153685867,3526.11551709697,0.78,0.08,0.96,349.210223501902,557.203186115482,3454.21659653544,0.25,0.08,0.96,361.718846820174,510.65229719652,3568.27080007812,0.78,0.08,0.96,11.6723427290627,-130.189330290685,3130.03395689941,0,0,0,12.6495116653132,-152.57083093458,3144.62187844592,0.4,0.4,0.4
-20.7605640635,-148.815357391719,3158.80735318845,0.12,0.8,1,29.5232594443029,-74.5348840726798,3103.57306616901,0.56,0.9,1,114.757639250822,-135.864381178807,3173.77158917105,0.56,0.9,1,100.010431171603,-54.7277989218293,3169.90501892869,0.1,0.66,0.03,-29.7110969756804,-15.030082473972,3205.22651414832,0.85,0.07,0.09,81.3847526381215,-25.8185116301431,3247.40862184254,0.95,0.49,0.05,-102.991770553542,85.2859664740007,3238.69752159816,0.85,0.07,0.09,-82.3433996294584,-129.457683316992,3308.56792972327,0.95,0.49,0.05,-188.780214686123,-103.068382744038,3243.70666549166,0.85,0.07,0.09,-182.918413635791,-210.746686599088,3228.35254743839,0.95,0.49,0.05,272.528233149332,284.091892047435,3325.34222061286,0.1,0.66,0.03,356.272234454138,448.763408195129,3430.72550551914,0.96,0.94,0.08,231.641365631103,495.436039444341,3441.14601826838,0.25,0.08,0.96,251.120242268933,431.386558968208,3526.5773833318,0.78,0.08,0.96,346.573091669542,555.115364472511,3441.98403286962,0.25,0.08,0.96,363.133732564909,508.637585022401,3566.10685931207,0.78,0.08,0.96,11.0680212641618,-130.369777122955,3128.84703896506,0,0,0,12.5491914189029,-151.914683103451,3143.04204683387,0.4,0.4,0.4
-21.7989581310323,-146.745277250309,3162.75055597826,0.12,0.8,1,30.7343562971348,-80.0731410017501,3103.82262413197,0.56,0.9,1,113.410021483773,-135.234879464552,3173.26811469782,0.56,0.9,1,99.4799260003533,-53.9411752258077,3169.36931656699,0.1,0.66,0.03,-31.3635389000066,-16.4016391693549,3204.24483153948,0.85,0.07,0.09,81.874765549132,-21.9441207395066,3244.36518357385,0.95,0.49,0.05,-103.038493403711,82.0091582022488,3233.01921505255,0.85,0.07,0.09,-79.1402765722033,-131.521523390005,3312.32263185152,0.95,0.49,0.05,-186.977053025675,-101.029019670565,3247.71311562499,0.85,0.07,0.09,-183.875157221532,-211.610635955783,3239.68934554816,0.95,0.49,0.05,272.044056153171,285.852147460829,3323.93527739288,0.1,0.66,0.03,357.235877090617,448.209809063266,3427.61058570901,0.96,0.94,0.08,232.67130370585,494.650671925682,3438.87916206854,0.25,0.08,0.96,252.194136168398,430.290991593521,3526.59267265547,0.78,0.08,0.96,347.850084721615,557.694908064707,3452.68676060001,0.25,0.08,0.96,363.16573605891,508.706189957436,3566.18765700062,0.78,0.08,0.96,9.75992622937015,-129.344352091663,3131.4347525424,0,0,0,12.1815813825374,-152.057569838644,3145.11720390125,0.4,0.4,0.4
-20.4942831012908,-150.299382992892,3165.66639337604,0.12,0.8,1,27.9995933035498,-71.3891057249525,3105.20603124365,0.56,0.9,1,113.21738344137,-134.072076839843,3173.83786638404,0.56,0.9,1,97.8506358805078,-50.5658181568506,3174.54355394749,0.1,0.66,0.03,-41.7133910360543,-15.391518902155,3168.9206812478,0.85,0.07,0.09,78.7439119977813,-21.8150719936711,3246.73275790958,0.95,0.49,0.05,-106.340597381625,80.8459694629818,3235.46085760223,0.85,0.07,0.09,-77.4217901251891,-131.046381946803,3315.61736178681,0.95,0.49,0.05,-187.624161346811,-97.946583626588,3247.25677773033,0.85,0.07,0.09,-182.972176390389,-210.836768955844,3236.70528102152,0.95,0.49,0.05,274.803711319769,285.590931798003,3325.6944090781,0.1,0.66,0.03,357.09105915833,451.081935676702,3417.4539742176,0.96,0.94,0.08,234.336250567878,495.906226084231,3430.78374464323,0.25,0.08,0.96,254.813259217792,421.330961271899,3526.38012753836,0.78,0.08,0.96,348.265074748992,558.092086980579,3452.8884657106,0.25,0.08,0.96,359.719246843502,508.730922669473,3565.96657499304,0.78,0.08,0.96,9.75060324260379,-128.869321542926,3132.88444662253,0,0,0,12.3342097634818,-151.892551593805,3144.98193697477,0.4,0.4,0.4
-22.7165391001221,-147.475444426879,3167.01211232398,0.12,0.8,1,28.0868323814911,-75.2883181808917,3107.2213004327,0.56,0.9,1,111.00508493811,-134.169779825831,3176.29374288565,0.56,0.9,1,96.4923717375851,-52.3730198657255,3172.00204872979,0.1,0.66,0.03,-34.694973807709,-15.7291749888089,3206.68092043689,0.85,0.07,0.09,81.168775421626,-19.6533059498433,3242.81048509827,0.95,0.49,0.05,-107.492529027483,77.4657504568084,3235.6396728515,0.85,0.07,0.09,-78.9903547656712,-129.759545392223,3320.81979879449,0.95,0.49,0.05,-192.046667804461,-100.924227434852,3241.83916137241,0.85,0.07,0.09,-188.83914478108,-212.647943413843,3234.2526489351,0.95,0.49,0.05,272.352067679073,286.450976034864,3320.68703822477,0.1,0.66,0.03,355.173977459431,449.882668712696,3408.80134006155,0.96,0.94,0.08,229.757256028725,495.724902054417,3432.85305489074,0.25,0.08,0.96,254.853572134711,421.33239214676,3523.05924427967,0.78,0.08,0.96,348.031811154295,556.221456600671,3448.52889247574,0.25,0.08,0.96,361.13017449032,507.343652753477,3564.06480907859,0.78,0.08,0.96,9.37212387583004,-132.580623117283,3136.46705162875,0,0,0,11.0391725652532,-155.820623339905,3148.04514305892,0.4,0.4,0.4
-23.0717847564838,-146.092306560451,3170.31103610958,0.12,0.8,1,33.0310455735099,-83.0326560021838,3106.70232031095,0.56,0.9,1,112.283009448602,-141.532103978893,3175.40191084956,0.56,0.9,1,96.1876972915658,-55.1154993995096,3172.85285319734,0.1,0.66,0.03,-39.141203669323,-18.8892314152962,3172.04590313127,0.85,0.07,0.09,80.2943250763718,-25.2027901223708,3248.18273408539,0.95,0.49,0.05,-111.855887093094,74.2676511620516,3236.01624170377,0.85,0.07,0.09,-76.5256538220731,-129.233710527575,3324.06351717321,0.95,0.49,0.05,-197.24394181786,-109.442351625441,3242.65639476786,0.85,0.07,0.09,-189.589543611325,-214.205083714578,3234.38289831401,0.95,0.49,0.05,271.379960656898,282.910299367788,3320.74982992284,0.1,0.66,0.03,356.790977402791,453.950305813072,3416.66827998668,0.96,0.94,0.08,231.346570387804,496.356686794828,3429.83964563878,0.25,0.08,0.96,253.553516842573,421.291286696242,3524.08501138647,0.78,0.08,0.96,347.586402122309,557.572719958555,3459.44269310908,0.25,0.08,0.96,359.183794858747,508.278251538342,3564.85268203796,0.78,0.08,0.96,8.82849104126447,-132.955298762604,3137.71803595905,0,0,0,11.7713007550932,-156.224077630545,3149.66729417839,0.4,0.4,0.4
-22.506777644578,-146.623935453824,3171.12453026755,0.12,0.8,1,27.2757018672535,-85.4028843503142,3114.25520337253,0.56,0.9,1,113.839918931395,-140.854871190275,3177.16896907373,0.56,0.9,1,94.3825248454765,-53.162440464722,3174.8426871157,0.1,0.66,0.03,-43.8426517744897,-25.4855784082156,3171.31858983561,0.85,0.07,0.09,79.3825772282674,-21.6316679638284,3253.42497838112,0.95,0.49,0.05,-122.491699993717,68.6726311781641,3219.6653535917,0.85,0.07,0.09,-79.2063860482535,-129.790765668576,3327.89542408041,0.95,0.49,0.05,-195.510989668137,-118.226719256119,3225.60722723978,0.85,0.07,0.09,-186.628594150709,-212.505334979476,3231.94428622484,0.95,0.49,0.05,272.171300705089,289.121920313377,3318.28174914247,0.1,0.66,0.03,357.130994230019,455.702082073753,3415.15756164075,0.96,0.94,0.08,229.741204466731,495.74512012955,3429.99956746511,0.25,0.08,0.96,254.018696218383,421.28305573099,3521.88061570426,0.78,0.08,0.96,345.224777282274,556.183817870836,3453.56312944473,0.25,0.08,0.96,359.330450708475,506.53331173153,3565.42742990716,0.78,0.08,0.96,8.36296746247037,-134.533369644691,3136.78524434618,0,0,0,15.2135559514085,-160.301976212926,3150.86856717588,0.4,0.4,0.4
-20.0286308862623,-145.901138798651,3169.74989568914,0.12,0.8,1,33.710534163787,-84.4256444218507,3109.18217825324,0.56,0.9,1,112.818159107779,-144.180294489591,3176.74643249671,0.56,0.9,1,96.8743202820614,-62.607722968843,3172.15715320836,0.1,0.66,0.03,-41.0063456134457,-18.2672559519075,3166.03234744058,0.85,0.07,0.09,81.0045530951318,-22.0068410746773,3247.77761920888,0.95,0.49,0.05,-125.316248764679,65.0631045844647,3214.43027804906,0.85,0.07,0.09,-78.8584426558384,-135.018246532712,3325.40031696259,0.95,0.49,0.05,-200.2576924548,-127.7142127167,3229.77240098773,0.85,0.07,0.09,-184.711170149116,-213.527771293385,3232.56483724299,0.95,0.49,0.05,270.033118357347,288.481471841851,3316.08748100299,0.1,0.66,0.03,359.324415771504,456.292133538611,3410.16800007038,0.96,0.94,0.08,229.515881280099,494.928839418912,3426.64359287523,0.25,0.08,0.96,251.731689951865,418.124482443419,3521.5583546448,0.78,0.08,0.96,344.390373820255,558.611488774921,3450.9968845052,0.25,0.08,0.96,357.477649025821,508.004777278902,3563.66752950119,0.78,0.08,0.96,9.27556697824553,-134.579918246448,3136.76867879535,0,0,0,17.8348013935721,-159.804095587245,3152.00180975414,0.4,0.4,0.4
-20.8427780437999,-143.803504692664,3164.39883395396,0.12,0.8,1,34.4522893329395,-84.2594699429539,3109.02902518938,0.56,0.9,1,111.928029567994,-145.46563725503,3175.65545629178,0.56,0.9,1,96.9859190604307,-65.1348384467171,3170.71471142929,0.1,0.66,0.03,-36.4991581949195,-23.5821437084492,3163.39456873827,0.85,0.07,0.09,81.9595790983731,-21.1578603263846,3247.24775670654,0.95,0.49,0.05,-127.505001237236,62.8420440033254,3210.91357722404,0.85,0.07,0.09,-82.5290808756302,-131.995674262507,3327.60594781405,0.95,0.49,0.05,-201.757461451898,-138.004265008676,3227.92737611504,0.85,0.07,0.09,-184.933847274632,-212.369645715105,3231.15392329869,0.95,0.49,0.05,270.213325526058,288.487956510816,3310.65580179621,0.1,0.66,0.03,354.832951422887,457.097664778928,3410.46672388497,0.96,0.94,0.08,228.086471822916,495.984756320736,3432.42775968202,0.25,0.08,0.96,253.341767637674,416.656133620622,3521.6277059854,0.78,0.08,0.96,343.303698823818,557.30959995151,3452.32288765312,0.25,0.08,0.96,358.65101922,507.182556266917,3564.3331272234,0.78,0.08,0.96,8.96039885228237,-137.52768934793,3135.19173994349,0,0,0,15.4244357946225,-160.113423898709,3150.1462687268,0.4,0.4,0.4
-21.6827538952875,-148.112849137232,3164.44390567465,0.12,0.8,1,26.2889252913696,-86.6905591067582,3115.38531966029,0.56,0.9,1,109.71361147459,-146.760704394988,3179.83252926121,0.56,0.9,1,97.7386376576253,-62.3943248505474,3173.33235512893,0.1,0.66,0.03,-37.6641060909758,-23.6123337134829,3165.37422375563,0.85,0.07,0.09,77.2546492583234,-19.9174367782809,3244.63692383329,0.95,0.49,0.05,-130.046402179177,54.4890133246263,3212.44468960792,0.85,0.07,0.09,-80.660600262542,-132.956238372969,3330.21974303345,0.95,0.49,0.05,-197.21714285044,-142.936609005124,3211.88625489195,0.85,0.07,0.09,-186.662205824109,-205.978468754774,3223.88052768258,0.95,0.49,0.05,269.812261454882,287.322113820277,3311.72112588014,0.1,0.66,0.03,354.650127437228,456.65749572727,3412.86456719241,0.96,0.94,0.08,226.449786494922,497.576851815875,3433.21689291881,0.25,0.08,0.96,250.546893150871,415.605367214809,3519.47705636593,0.78,0.08,0.96,344.927225849362,555.589195075381,3445.23614698717,0.25,0.08,0.96,355.614383791304,508.994337664137,3562.0047185832,0.78,0.08,0.96,8.19821316422702,-138.870532955983,3135.68846303157,0,0,0,15.478105262176,-163.999114631899,3151.72466706742,0.4,0.4,0.4
-17.4273845516095,-151.10330571497,3163.08449842551,0.12,0.8,1,26.4790789347214,-89.1000677598149,3113.23683789247,0.56,0.9,1,106.646108948151,-143.340086296289,3178.47203501864,0.56,0.9,1,96.4717514532905,-57.5037799808468,3174.15311989917,0.1,0.66,0.03,-30.5542740316479,-19.2395111972209,3157.63987929229,0.85,0.07,0.09,74.5947227214931,-21.8266799006034,3252.388100533,0.95,0.49,0.05,-135.318787218804,41.6687766818815,3213.52207571396,0.85,0.07,0.09,-82.2275149595489,-131.327103942956,3330.54446283423,0.95,0.49,0.05,-198.189329048775,-149.260126125164,3201.28878801262,0.85,0.07,0.09,-184.077189851084,-205.073743042805,3226.82847623902,0.95,0.49,0.05,269.500311144205,287.966891563182,3309.37303293002,0.1,0.66,0.03,358.082554958211,457.352629902586,3409.40011534813,0.96,0.94,0.08,225.632811428758,501.883830607879,3428.77670496951,0.25,0.08,0.96,250.331607367666,419.380672229974,3521.61852632951,0.78,0.08,0.96,343.289929688587,556.315015425038,3442.34964666144,0.25,0.08,0.96,356.31423160405,510.678500033962,3562.26310411863,0.78,0.08,0.96,7.60384945847034,-139.019799051358,3134.63220663666,0,0,0,18.2648521162871,-159.688015315263,3151.23282413835,0.4,0.4,0.4
-19.5160185509173,-154.553610455014,3164.83689630785,0.12,0.8,1,23.7088491317503,-88.7632567772611,3113.10563662741,0.56,0.9,1,108.325569127741,-132.163646968881,3184.72601617375,0.56,0.9,1,93.8617189573658,-54.8019560327856,3174.8394185897,0.1,0.66,0.03,-32.8975883094391,-14.2699839852339,3157.0220797447,0.85,0.07,0.09,70.7453329536336,-19.6722855129231,3252.26201585871,0.95,0.49,0.05,-137.707428188858,29.4324601807248,3212.16207139881,0.85,0.07,0.09,-86.4602811886161,-132.064954900726,3327.96207345591,0.95,0.49,0.05,-208.424918648037,-165.138628177961,3192.669038786,0.85,0.07,0.09,-183.267816774904,-212.322621462462,3230.7248000675,0.95,0.49,0.05,269.922588629073,290.194884324222,3314.48254724986,0.1,0.66,0.03,357.709499428812,455.946351069933,3411.67930181534,0.96,0.94,0.08,226.813140582733,497.979343587548,3435.61906038628,0.25,0.08,0.96,251.364474702624,421.610931926054,3523.36373289026,0.78,0.08,0.96,343.045511678593,556.199223564092,3444.81846443441,0.25,0.08,0.96,355.777819917149,510.961391118029,3563.65449980984,0.78,0.08,0.96,4.85127460952426,-135.727266195794,3135.56345336689,0,0,0,17.6958522315792,-162.181348835498,3153.06713129186,0.4,0.4,0.4
-21.3080335221812,-151.929674438126,3165.20031029434,0.12,0.8,1,20.0449793178494,-85.5410641569267,3110.46285069311,0.56,0.9,1,-58.2311004007259,-213.357381177884,3193.81291471361,0.56,0.9,1,94.1084537504107,-63.1531097422288,3177.59836106068,0.1,0.66,0.03,-29.6753889977741,-21.6587921420011,3155.83432922527,0.85,0.07,0.09,71.0742173796344,-23.7752496473372,3253.33376670607,0.95,0.49,0.05,-142.452564860949,16.722766583262,3209.17709505575,0.85,0.07,0.09,-83.3948338831453,-133.296065409591,3335.13249570577,0.95,0.49,0.05,-207.118331150043,-191.462323424189,3183.51130867112,0.85,0.07,0.09,-179.131246506182,-217.141931949753,3230.53891399863,0.95,0.49,0.05,266.43208478273,296.564626329292,3312.39355818386,0.1,0.66,0.03,354.082847617946,456.187216908519,3408.774351191,0.96,0.94,0.08,223.447425834486,501.568098117735,3435.05867116978,0.25,0.08,0.96,252.105073472092,422.14368405239,3521.90745755611,0.78,0.08,0.96,341.523832835675,557.719418365824,3451.42123230261,0.25,0.08,0.96,356.395921568732,508.591928860258,3566.51465144134,0.78,0.08,0.96,5.74470828908454,-141.867040442216,3136.94117860137,0,0,0,13.4496907796229,-165.614692332396,3152.78467771529,0.4,0.4,0.4
-23.4270402711296,-158.541073122673,3165.78027130999,0.12,0.8,1,17.1659310838968,-89.3773245863603,3106.57308766813,0.56,0.9,1,-57.6002713570627,-214.372777554883,3189.62182623031,0.56,0.9,1,94.3825390299781,-63.411367032444,3175.15601944886,0.1,0.66,0.03,-33.4350328244716,-23.7853896929049,3150.8768630428,0.85,0.07,0.09,74.7526574746055,-40.4858949899513,3248.52424186586,0.95,0.49,0.05,-145.726571138353,5.10985050311506,3203.71692246801,0.85,0.07,0.09,-81.9072659155402,-134.330838260978,3335.73068972582,0.95,0.49,0.05,-209.182847123839,-194.797992675133,3169.96502949187,0.85,0.07,0.09,-179.789761502969,-221.223570508505,3233.27513238833,0.95,0.49,0.05,266.659459866481,289.299886038389,3316.19529827522,0.1,0.66,0.03,355.919533308234,452.436943415295,3411.44718196491,0.96,0.94,0.08,223.643227314007,501.955100952756,3431.15426963844,0.25,0.08,0.96,249.37615926316,413.965299478189,3520.04588427495,0.78,0.08,0.96,341.111414094047,556.902433124147,3445.77327317451,0.25,0.08,0.96,352.127735563914,509.286202762474,3562.73165110065,0.78,0.08,0.96,5.27157869177427,-145.037697621091,3136.08362258634,0,0,0,16.4402120645179,-168.102782390541,3153.32324710258,0.4,0.4,0.4
-24.494708564251,-165.354263587618,3164.58819348817,0.12,0.8,1,16.0604371427314,-93.3508280542051,3106.17737775884,0.56,0.9,1,109.792656061328,-144.714299058999,3180.97590554505,0.56,0.9,1,90.7968572759598,-67.2118723310761,3170.53577496392,0.1,0.66,0.03,-38.8935119010679,-31.3197161730696,3149.33966777335,0.85,0.07,0.09,71.8790432310954,-43.8066836175147,3248.19192342698,0.95,0.49,0.05,-147.52849117115,-8.79670753748088,3197.82518177149,0.85,0.07,0.09,-82.1580171885326,-138.197501735337,3333.42329830175,0.95,0.49,0.05,-209.019794000203,-206.749681740486,3159.31189833854,0.85,0.07,0.09,-187.994347282178,-220.380747336976,3233.76597833633,0.95,0.49,0.05,265.748811674725,289.894191307651,3312.97769639682,0.1,0.66,0.03,352.113445737236,451.170947564914,3410.10671190953,0.96,0.94,0.08,226.171504376233,498.711690079266,3428.80965941909,0.25,0.08,0.96,253.889575010837,397.691703429656,3518.82433726504,0.78,0.08,0.96,342.21832288792,556.318156399446,3443.41603343023,0.25,0.08,0.96,353.010684469024,512.378601315141,3570.45694776702,0.78,0.08,0.96,4.29633984647139,-150.336628450252,3132.69439343999,0,0,0,14.0082597755774,-172.671415858053,3152.33772156403,0.4,0.4,0.4
-21.6971322907719,-168.031327507032,3166.54381973268,0.12,0.8,1,15.4081339074582,-92.039643944351,3101.72995016362,0.56,0.9,1,111.704539960959,-147.881533563242,3179.43915276621,0.56,0.9,1,91.8005499947018,-70.7783030295115,3169.08689777888,0.1,0.66,0.03,-29.3056151128129,-29.0013799820419,3146.70740030206,0.85,0.07,0.09,69.8133846096403,-35.6585252493302,3246.64592020383,0.95,0.49,0.05,-155.599636312988,-23.8064062535844,3195.98544943919,0.85,0.07,0.09,-79.0299502943325,-134.403302433124,3337.72531186539,0.95,0.49,0.05,-212.767733913543,-216.449764386897,3154.58402694405,0.85,0.07,0.09,-186.305014256535,-225.876286207497,3238.60499078235,0.95,0.49,0.05,260.725285901926,292.129699165569,3309.62321759658,0.1,0.66,0.03,352.681727984,450.54214300102,3408.65769908206,0.96,0.94,0.08,225.357249945685,497.687103264014,3423.780240918,0.25,0.08,0.96,252.150711363916,396.203245962176,3515.01392442901,0.78,0.08,0.96,340.876275209951,556.468465376093,3442.46973620376,0.25,0.08,0.96,350.033831509588,505.310959480328,3571.44770553232,0.78,0.08,0.96,5.15418112858443,-151.06871734594,3132.12737947595,0,0,0,12.9204045381552,-169.095469739084,3151.95506960137,0.4,0.4,0.4
-23.6188264881614,-171.463474582364,3164.6695496976,0.12,0.8,1,15.3403951242304,-95.3659034081814,3101.17476695242,0.56,0.9,1,108.824854056502,-147.842237118011,3179.33321224645,0.56,0.9,1,90.8748054302065,-69.2579930817775,3169.25887012349,0.1,0.66,0.03,-33.893268432929,-44.9464153243852,3147.15980184332,0.85,0.07,0.09,73.4324593071829,-45.425920909914,3246.07241054497,0.95,0.49,0.05,-157.051944285412,-34.4350951591146,3192.75501309832,0.85,0.07,0.09,-80.3530181783169,-135.19231736967,3338.38313155813,0.95,0.49,0.05,-216.795270009582,-231.224010031472,3147.87120188453,0.85,0.07,0.09,-187.247758469176,-239.049591367927,3240.54362013512,0.95,0.49,0.05,256.819571585845,288.18534239119,3307.46741207931,0.1,0.66,0.03,350.066426564763,451.663128707078,3397.20017959115,0.96,0.94,0.08,222.967817391305,495.250296796503,3425.45760949954,0.25,0.08,0.96,247.025913191942,408.568378509165,3516.5667563831,0.78,0.08,0.96,339.424681041901,555.119481097258,3438.85233566342,0.25,0.08,0.96,348.381325366806,496.834149904096,3564.4832342508,0.78,0.08,0.96,3.56000066655669,-154.266758553861,3131.02860121599,0,0,0,13.3724546795755,-174.666154280823,3151.09580499974,0.4,0.4,0.4
-24.9208783381917,-169.42034229838,3165.33434760003,0.12,0.8,1,14.2044735052376,-96.2691780729562,3099.02160922096,0.56,0.9,1,111.283528391417,-146.894943059835,3179.29543650205,0.56,0.9,1,87.4666113207928,-67.8465073844818,3168.53737905748,0.1,0.66,0.03,-40.5490070486081,-42.7976368527103,3145.37765395051,0.85,0.07,0.09,71.2039044084565,-45.0614670814653,3249.25940235691,0.95,0.49,0.05,-157.595513143823,-45.737105453263,3186.49929533812,0.85,0.07,0.09,-83.2873821763822,-139.605190522961,3341.3259034923,0.95,0.49,0.05,-213.794645157233,-247.190802143586,3141.28338190827,0.85,0.07,0.09,-187.011373505228,-253.091479681955,3237.25870259018,0.95,0.49,0.05,255.889874565009,295.638977427776,3312.23105499333,0.1,0.66,0.03,349.698191790496,453.030549100274,3394.89116027831,0.96,0.94,0.08,223.764137984248,495.237203931416,3424.82573457078,0.25,0.08,0.96,247.514481499387,390.228427594811,3513.39631848938,0.78,0.08,0.96,336.335401674388,557.22953623863,3436.51223294181,0.25,0.08,0.96,346.403141107106,495.632239699729,3563.67294733708,0.78,0.08,0.96,1.7819023839185,-151.036055836888,3131.82548826116,0,0,0,12.6543194933586,-173.20177255219,3153.45723390813,0.4,0.4,0.4
-23.4220805542852,-172.642280703299,3167.39659708772,0.12,0.8,1,18.3061548718778,-101.877934267136,3098.20194653383,0.56,0.9,1,110.827085709776,-152.423066955064,3178.76009985192,0.56,0.9,1,88.5993000858549,-78.7609248012651,3171.39777307085,0.1,0.66,0.03,-48.4351318792513,-61.8235486268155,3158.66937679682,0.85,0.07,0.09,71.1140326026878,-50.2194120786324,3245.36476489732,0.95,0.49,0.05,-162.040450129207,-61.721318264664,3184.01022438709,0.85,0.07,0.09,-84.6399461105448,-139.87422688248,3341.45560741095,0.95,0.49,0.05,-214.819580035742,-262.577350953291,3139.42651778217,0.85,0.07,0.09,-188.631939577896,-261.787731750342,3237.10970360498,0.95,0.49,0.05,253.829095559032,296.365557090834,3310.99101803261,0.1,0.66,0.03,347.058731525686,449.894596072511,3393.26022710839,0.96,0.94,0.08,220.564333923179,495.524337052615,3419.75315456727,0.25,0.08,0.96,248.357891407036,385.966949710676,3510.4137788302,0.78,0.08,0.96,336.185631226104,559.770292921373,3437.10125832015,0.25,0.08,0.96,348.012547639232,492.54519096711,3567.78531674426,0.78,0.08,0.96,3.68497577264336,-153.440943638545,3133.5756054428,0,0,0,11.0506174363428,-175.623475312527,3153.41199875461,0.4,0.4,0.4
-20.8672967613223,-171.520347329015,3167.11335805691,0.12,0.8,1,17.3231027524929,-102.680691145144,3110.56389398476,0.56,0.9,1,112.421702354868,-146.910102122895,3179.55482181447,0.56,0.9,1,90.3699225557802,-72.7575436352363,3165.8266678075,0.1,0.66,0.03,-42.1593571293143,-57.2495704676311,3148.24901328214,0.85,0.07,0.09,74.9770184100004,-41.4615165148181,3248.68545089842,0.95,0.49,0.05,-156.849602981777,-77.3543544713586,3181.73640001386,0.85,0.07,0.09,-88.3775504711736,-128.272794459866,3341.20603916138,0.95,0.49,0.05,-218.553705978035,-271.571020382825,3133.47194058758,0.85,0.07,0.09,-186.020704302218,-278.366145782698,3236.76097545186,0.95,0.49,0.05,247.874659175201,300.089584773045,3308.45809854442,0.1,0.66,0.03,342.210414945462,445.203114387997,3387.50428995845,0.96,0.94,0.08,223.477295960924,488.112300592348,3412.23421684115,0.25,0.08,0.96,257.210196741532,363.550177340413,3507.55580117125,0.78,0.08,0.96,334.44531546614,557.839262198151,3436.47962176869,0.25,0.08,0.96,346.486437575579,492.637911244152,3558.21189248607,0.78,0.08,0.96,6.30322690559756,-158.905541133921,3138.91371086703,0,0,0,16.0030775295766,-177.898752024539,3158.80689485067,0.4,0.4,0.4
-21.2431594285462,-176.937067786758,3170.80670564161,0.12,0.8,1,17.5958971783069,-102.472724402497,3108.26871784833,0.56,0.9,1,-65.5995189247323,-284.794668495997,3187.92578054293,0.56,0.9,1,87.5502426556039,-69.9140537794743,3167.20926461794,0.1,0.66,0.03,-46.4323201625049,-54.7016635348334,3146.31732404592,0.85,0.07,0.09,72.1983673214702,-39.9383613008295,3248.09523940949,0.95,0.49,0.05,-157.609937938918,-86.7853856403184,3176.33097083234,0.85,0.07,0.09,-90.1942384077148,-132.048295451762,3344.68335172622,0.95,0.49,0.05,-221.139658439,-281.703110898516,3136.42045241672,0.85,0.07,0.09,-177.034272639368,-294.722178126854,3235.40466691893,0.95,0.49,0.05,246.285000488351,299.146408598839,3308.14598503906,0.1,0.66,0.03,340.726487853557,447.354058076598,3388.26875922825,0.96,0.94,0.08,219.774510562493,489.122957873039,3413.20614262522,0.25,0.08,0.96,247.323333939314,384.820561278522,3516.57636759804,0.78,0.08,0.96,333.457627840429,557.731294139673,3435.74517420834,0.25,0.08,0.96,342.999874034321,488.314932651198,3559.71584425418,0.78,0.08,0.96,5.38576728758083,-160.780836246058,3141.24894325453,0,0,0,18.8435179051865,-180.697820125971,3160.2761688254,0.4,0.4,0.4
-20.449668934103,-185.648968505402,3175.03301257839,0.12,0.8,1,16.7372824735351,-107.757821044819,3109.86914013483,0.56,0.9,1,-68.0089975327812,-294.112308391635,3185.55808776595,0.56,0.9,1,90.6440306926282,-81.9883255175123,3164.79555530223,0.1,0.66,0.03,-42.8669123304749,-58.2007809384436,3146.39361540474,0.85,0.07,0.09,75.4118769743388,-40.901395497389,3247.8118449543,0.95,0.49,0.05,-155.627914608813,-98.5551284101407,3170.42336374084,0.85,0.07,0.09,-86.061297514222,-143.223247853507,3344.43918189182,0.95,0.49,0.05,-221.416881297767,-304.224801355108,3133.24071059276,0.85,0.07,0.09,-181.117542873912,-298.207736529561,3235.84957547277,0.95,0.49,0.05,243.006768533417,292.293011557891,3307.98344480413,0.1,0.66,0.03,338.555520073259,445.65103610031,3383.20006748613,0.96,0.94,0.08,219.369426784508,486.783151988412,3416.86960154092,0.25,0.08,0.96,247.025216876029,383.741220501053,3511.88137707441,0.78,0.08,0.96,326.823857346105,557.47197727744,3433.75517119829,0.25,0.08,0.96,343.243821410688,493.543470373966,3562.09694429021,0.78,0.08,0.96,7.26189560137697,-167.587287796369,3145.85361766981,0,0,0,19.5330381415872,-187.878526495165,3162.10273398338,0.4,0.4,0.4
-19.7989404925425,-187.56888690431,3175.04849745602,0.12,0.8,1,19.9277026379292,-115.59994135445,3107.51996435745,0.56,0.9,1,116.058040079052,-155.900047293329,3177.12652921454,0.56,0.9,1,90.5854188380491,-88.1067704474909,3166.89165414198,0.1,0.66,0.03,-39.9141021909897,-63.7260031520546,3145.3388400781,0.85,0.07,0.09,71.2724165573936,-49.0071303824454,3248.90212814559,0.95,0.49,0.05,-149.600238538512,-110.599209631484,3171.68397157991,0.85,0.07,0.09,-87.1301568811378,-149.441451511918,3343.40890641622,0.95,0.49,0.05,-225.02302065099,-306.855671440529,3128.25453745384,0.85,0.07,0.09,-182.521678761666,-295.950478107197,3236.1143789639,0.95,0.49,0.05,241.207161475947,290.8708340957,3305.21921724365,0.1,0.66,0.03,333.702905620855,443.241388672145,3390.83383357331,0.96,0.94,0.08,218.267832876614,486.031719353043,3418.76654280325,0.25,0.08,0.96,258.88227764569,341.805477406358,3507.06643873084,0.78,0.08,0.96,324.965756188177,556.977725960702,3435.97231135693,0.25,0.08,0.96,339.774563294261,491.883861892053,3562.74512514983,0.78,0.08,0.96,7.53761844201003,-170.646238673268,3145.11694737736,0,0,0,20.0390984982988,-190.398756381965,3160.74953728826,0.4,0.4,0.4
-18.1746469261398,-189.387667870707,3175.39529408089,0.12,0.8,1,19.8052625826119,-119.285291770817,3111.37914002575,0.56,0.9,1,118.0210463192,-152.236572851342,3178.11060711818,0.56,0.9,1,90.669845151552,-91.4464428020782,3168.59596175092,0.1,0.66,0.03,-41.9483722777446,-66.5677579928312,3146.2192608997,0.85,0.07,0.09,74.271028485584,-49.5956798230892,3251.80481582534,0.95,0.49,0.05,-149.526155748076,-119.414792954414,3170.62278881091,0.85,0.07,0.09,-95.7095676812626,-163.970349804261,3341.82565172395,0.95,0.49,0.05,-225.907757271446,-316.083096785307,3129.9406602057,0.85,0.07,0.09,-181.013354785085,-311.415874356994,3237.41200879844,0.95,0.49,0.05,236.942032531607,292.011573604716,3306.6929681079,0.1,0.66,0.03,330.279168973639,440.065639769869,3385.64741144981,0.96,0.94,0.08,216.811347358505,486.609890283155,3413.95072428939,0.25,0.08,0.96,254.402000479321,341.783936800418,3507.69346709728,0.78,0.08,0.96,323.421268034269,550.500610592913,3438.86687876948,0.25,0.08,0.96,338.677747169024,489.93742602571,3561.52682991727,0.78,0.08,0.96,6.70315823163222,-174.262120901062,3147.40946158511,0,0,0,22.4525063293842,-194.817391742712,3162.77918951853,0.4,0.4,0.4
-18.5779476538396,-194.713833611175,3176.16384717605,0.12,0.8,1,20.5946829759559,-128.251045332069,3113.87658923483,0.56,0.9,1,116.610242016105,-152.834192167386,3180.77526978447,0.56,0.9,1,90.9788893161508,-92.6870788719063,3169.06884666308,0.1,0.66,0.03,-48.8280370139447,-83.6005700652619,3159.11957287685,0.85,0.07,0.09,73.3057906204012,-49.1987068845045,3251.00870853081,0.95,0.49,0.05,-147.818891299751,-131.905179137645,3164.31549965357,0.85,0.07,0.09,-86.7646080958891,-168.658430510346,3343.02386708557,0.95,0.49,0.05,-225.551804999477,-324.969701192609,3135.503919178,0.85,0.07,0.09,-179.802050720256,-319.186805540839,3236.61201946408,0.95,0.49,0.05,236.877024204002,285.528725854016,3304.78058872925,0.1,0.66,0.03,328.727478585525,434.080644613705,3386.09768883075,0.96,0.94,0.08,211.693051243345,479.487137988892,3416.8100126243,0.25,0.08,0.96,235.150718063263,405.4257277934,3509.83106788493,0.78,0.08,0.96,324.499357960705,552.935587562017,3438.7152062899,0.25,0.08,0.96,333.384493859657,483.118487259203,3563.02656172351,0.78,0.08,0.96,11.2263185444452,-181.255877419714,3151.45578286288,0,0,0,21.9648177152992,-200.695540859575,3162.66137822492,0.4,0.4,0.4
-10.5414299091424,-200.332718944917,3175.44417194149,0.12,0.8,1,24.9719901656821,-134.339378375291,3113.76428844536,0.56,0.9,1,121.598051856593,-156.633354759386,3179.77224342296,0.56,0.9,1,93.7484722632864,-96.5437105240193,3171.0218127704,0.1,0.66,0.03,-37.2989493647996,-80.2716704375385,3140.41149726275,0.85,0.07,0.09,73.4747770359194,-54.6853656323794,3249.90454060038,0.95,0.49,0.05,-139.117346854676,-135.114486886949,3159.45636567705,0.85,0.07,0.09,-84.5894305098226,-165.862214658412,3342.89010360447,0.95,0.49,0.05,-223.587286300912,-333.584176684344,3140.39485855378,0.85,0.07,0.09,-176.186340973172,-329.942061149804,3236.7202685461,0.95,0.49,0.05,236.617906742675,285.060879089047,3304.41984441582,0.1,0.66,0.03,326.828324494707,433.175147006985,3381.27705299048,0.96,0.94,0.08,210.889292508863,479.30891440747,3417.60294332201,0.25,0.08,0.96,245.506651203535,354.649494023409,3504.96508098036,0.78,0.08,0.96,324.149151020628,547.735475501009,3437.32711074195,0.25,0.08,0.96,331.687375766981,490.273106008291,3563.66177046208,0.78,0.08,0.96,15.4195791770491,-185.287425582335,3150.61931492224,0,0,0,26.6244548172765,-206.788761429692,3163.55307595396,0.4,0.4,0.4
-6.34435747604178,-202.230153535643,3174.83638544663,0.12,0.8,1,29.1922348541361,-133.476956634318,3113.33208165742,0.56,0.9,1,119.779196362962,-156.148706459773,3181.25083362801,0.56,0.9,1,96.0946421491612,-98.6255644093348,3173.79137029187,0.1,0.66,0.03,-34.0629253838269,-87.5374683732946,3141.64998092047,0.85,0.07,0.09,74.9653490708747,-54.9120770981802,3247.38352617149,0.95,0.49,0.05,-132.433746208504,-132.248741522407,3161.94539905005,0.85,0.07,0.09,-78.3766462443522,-170.584683587221,3343.55771751111,0.95,0.49,0.05,-223.859343756459,-333.244513115933,3146.66325665269,0.85,0.07,0.09,-174.612353483576,-333.967490977746,3236.93825579705,0.95,0.49,0.05,236.784921586427,284.568941363433,3308.39208780401,0.1,0.66,0.03,323.383174095084,430.46024458825,3379.73964283877,0.96,0.94,0.08,213.54477564318,485.009594048406,3416.42237555814,0.25,0.08,0.96,240.895295207641,356.699287088701,3507.97556661162,0.78,0.08,0.96,323.3826388866,548.865027497711,3436.12521823368,0.25,0.08,0.96,329.151582536605,484.748260490564,3563.35328894945,0.78,0.08,0.96,20.4103415595585,-186.609989060559,3148.01505667502,0,0,0,29.8655109660362,-209.157545742713,3161.90385791207,0.4,0.4,0.4
-7.14521923552279,-207.027880938301,3172.59671173083,0.12,0.8,1,28.4832059056229,-130.204548234482,3112.49730746423,0.56,0.9,1,121.197603339507,-150.718815928307,3180.35164788779,0.56,0.9,1,95.6410052399439,-95.8221536084886,3174.37030949571,0.1,0.66,0.03,-30.7741649802506,-85.6519433657843,3142.86341723569,0.85,0.07,0.09,74.751122678122,-56.0413596122175,3247.72513837218,0.95,0.49,0.05,-139.905593660733,-129.851996869742,3163.51042705326,0.85,0.07,0.09,-68.9266026878546,-170.836702334746,3344.15032670281,0.95,0.49,0.05,-223.513579664779,-336.568848513768,3151.23654318613,0.85,0.07,0.09,-174.420329849739,-336.263315929396,3234.12536914733,0.95,0.49,0.05,234.560212767016,284.772928928506,3308.34602728301,0.1,0.66,0.03,319.923523320443,430.178328651328,3384.0124341937,0.96,0.94,0.08,210.833634150923,485.672050220637,3415.80623253198,0.25,0.08,0.96,237.645751701674,383.843134410107,3509.21703242894,0.78,0.08,0.96,321.802257796466,548.203496096588,3436.84794278619,0.25,0.08,0.96,329.563914586445,486.873830359047,3562.35483109068,0.78,0.08,0.96,23.5824313720931,-188.179506282058,3144.86223758177,0,0,0,30.145406549026,-210.430597751753,3160.51673446318,0.4,0.4,0.4
-0.586723554451812,-213.092570436538,3171.48976341592,0.12,0.8,1,30.0796566517835,-129.434781350364,3112.96422678442,0.56,0.9,1,119.290256893967,-148.939672916027,3182.80944113403,0.56,0.9,1,90.4935931764093,-84.5863290806335,3176.41275035936,0.1,0.66,0.03,-33.7143493299485,-85.8443240686978,3142.94404972581,0.85,0.07,0.09,76.1610610370836,-53.0595862358929,3242.65677006892,0.95,0.49,0.05,-136.941026161062,-135.397318174636,3162.16696883131,0.85,0.07,0.09,-82.9345070117737,-161.983565981674,3341.04898148896,0.95,0.49,0.05,-222.147573310885,-336.163630607541,3155.41103070973,0.85,0.07,0.09,-174.794579999837,-337.230527771012,3232.49721692498,0.95,0.49,0.05,233.675499688384,287.770300707692,3309.97273974794,0.1,0.66,0.03,318.409897330233,434.293391903753,3382.11572561881,0.96,0.94,0.08,211.954483229922,485.59305458462,3419.73893398581,0.25,0.08,0.96,245.545390949779,355.682475746259,3506.85643169434,0.78,0.08,0.96,320.511801183106,546.22910142407,3437.7148481527,0.25,0.08,0.96,329.260048008661,490.53449522614,3562.96911134337,0.78,0.08,0.96,24.455060549744,-189.473163166124,3143.97631304222,0,0,0,32.3727738758689,-212.058531420055,3159.41929406166,0.4,0.4,0.4
-0.609297100675402,-217.240806220232,3175.53468012529,0.12,0.8,1,27.3059027424704,-124.576956930002,3118.82438220073,0.56,0.9,1,122.593141670267,-152.153321865874,3180.1076492097,0.56,0.9,1,97.3442100178549,-94.0232074235419,3175.29119982895,0.1,0.66,0.03,-31.6004637919563,-83.7118962834455,3141.99299521362,0.85,0.07,0.09,74.5823185065421,-56.6727289186915,3244.68676758394,0.95,0.49,0.05,-137.452452108551,-142.340855544444,3161.87800429835,0.85,0.07,0.09,-80.0037168323006,-166.0447124085,3342.8532560148,0.95,0.49,0.05,-223.946361925014,-337.423370508952,3158.45626037549,0.85,0.07,0.09,-173.330785995528,-337.905104234025,3234.21796943898,0.95,0.49,0.05,233.507304547021,287.535189033589,3310.2618291641,0.1,0.66,0.03,318.264571670921,434.309088698487,3384.75326641378,0.96,0.94,0.08,213.24058659759,484.426218419127,3415.90339690857,0.25,0.08,0.96,229.063161024785,405.213573377022,3511.86801028387,0.78,0.08,0.96,321.542053947312,544.171090553009,3441.86809826707,0.25,0.08,0.96,326.282122018079,494.170914249573,3563.40866995784,0.78,0.08,0.96,24.3479744126654,-190.770857636668,3148.88884457929,0,0,0,34.390666457765,-214.687247586885,3160.21068211907,0.4,0.4,0.4
-1.67797395536001,-217.707882691817,3176.53613230667,0.12,0.8,1,31.6603243019206,-127.538371228227,3115.7246629742,0.56,0.9,1,122.70412247139,-155.99915055727,3185.00023728846,0.56,0.9,1,99.3081337974724,-95.772299752309,3176.94786735172,0.1,0.66,0.03,-27.4433869844804,-88.8603703154619,3143.16565893768,0.85,0.07,0.09,75.7656883800384,-57.7537119316925,3245.43136175974,0.95,0.49,0.05,-130.944162925308,-144.327454612294,3158.45581379895,0.85,0.07,0.09,-66.4639189653973,-170.687044438896,3341.38958147538,0.95,0.49,0.05,-209.707089965192,-340.64251424085,3159.25447924383,0.85,0.07,0.09,-174.864127252625,-337.945177317641,3233.51332239069,0.95,0.49,0.05,232.108049280495,289.641024392617,3308.19423313484,0.1,0.66,0.03,316.228240100938,436.523474071482,3386.91822344418,0.96,0.94,0.08,205.80574994955,484.187365578087,3416.80989768192,0.25,0.08,0.96,240.886002949701,357.957280598518,3510.22238690472,0.78,0.08,0.96,320.508878841766,544.829969238653,3441.65336006409,0.25,0.08,0.96,324.041967206984,495.770684955613,3562.74739481502,0.78,0.08,0.96,27.2368571681171,-190.185175678748,3143.81381466198,0,0,0,37.4015411405379,-211.234089593216,3163.47854478446,0.4,0.4,0.4
-0.892484714200814,-214.345121554514,3183.65205641055,0.12,0.8,1,31.7693562949645,-121.556277936543,3119.29186746592,0.56,0.9,1,127.753876944043,-161.082749291161,3184.3244185681,0.56,0.9,1,97.5662174776515,-90.335331826131,3173.01043172383,0.1,0.66,0.03,-29.4651953000241,-85.7095672289636,3136.6790272763,0.85,0.07,0.09,80.6849036482411,-53.0119349792745,3248.35286089886,0.95,0.49,0.05,-135.665063337787,-141.311581169515,3166.78020466586,0.85,0.07,0.09,-69.5122627402534,-169.850921623691,3342.70866354467,0.95,0.49,0.05,-211.385249505837,-341.567454407076,3162.48991638931,0.85,0.07,0.09,-173.726574213248,-336.470504578174,3235.38771062815,0.95,0.49,0.05,233.78613558037,290.998196282324,3308.95891577437,0.1,0.66,0.03,318.696712427208,439.7181897922,3385.65676999044,0.96,0.94,0.08,211.648100339941,485.41220753745,3419.83776283209,0.25,0.08,0.96,239.434720877371,356.112252816464,3512.2533196656,0.78,0.08,0.96,321.652736970105,545.104527695975,3441.54613509914,0.25,0.08,0.96,323.608641702432,496.421717654301,3566.99563307458,0.78,0.08,0.96,27.5029258918209,-187.931977720044,3151.24886245212,0,0,0,37.7164382147204,-209.459794070144,3167.7930793769,0.4,0.4,0.4
3.49081438329335,-219.447301427213,3180.71089767359,0.12,0.8,1,33.1435939010305,-124.147050240151,3120.4120907491,0.56,0.9,1,126.924431085879,-155.569384574432,3184.29381559317,0.56,0.9,1,100.442031679518,-91.594954700877,3176.70983693218,0.1,0.66,0.03,-21.7318150728904,-88.354296080478,3145.03886573714,0.85,0.07,0.09,79.3143001677039,-57.8171727482405,3247.0994287447,0.95,0.49,0.05,-130.124182268367,-144.018197788479,3161.07956116073,0.85,0.07,0.09,-77.9613349038841,-162.920603870213,3343.24989894,0.95,0.49,0.05,-209.557087186311,-338.139340225809,3160.89503068034,0.85,0.07,0.09,-173.410746455449,-334.93714429315,3236.98445000781,0.95,0.49,0.05,233.870261319539,285.585647684484,3308.38595676319,0.1,0.66,0.03,314.7151656351,432.170190418833,3384.33392941403,0.96,0.94,0.08,212.35849420686,488.121345816491,3419.35864658276,0.25,0.08,0.96,239.415371499401,354.698115436706,3508.5902978166,0.78,0.08,0.96,319.897101704766,542.815997579486,3437.06881589081,0.25,0.08,0.96,325.718336279358,496.959753351867,3566.79173411803,0.78,0.08,0.96,32.7574747394429,-191.751731730102,3149.9833882756,0,0,0,43.2317841833011,-211.485310001112,3167.40428604878,0.4,0.4,0.4
5.28764587109876,-218.94429662563,3182.3931891235,0.12,0.8,1,31.1428639872314,-128.895261945884,3122.78433136306,0.56,0.9,1,130.166346536363,-155.487454808285,3185.18705926355,0.56,0.9,1,100.017499805744,-85.9072046483916,3177.79263470504,0.1,0.66,0.03,-24.1265930353007,-90.2090496685764,3148.29158290788,0.85,0.07,0.09,80.8736972465537,-52.8277112409491,3249.82495915488,0.95,0.49,0.05,-128.263603517601,-145.306328788512,3158.63808816077,0.85,0.07,0.09,-73.2103456762584,-168.924833638201,3345.04435749246,0.95,0.49,0.05,-207.725318801118,-341.198334880335,3159.03535958051,0.85,0.07,0.09,-171.743962707795,-336.908561109034,3237.38416546247,0.95,0.49,0.05,233.391292844236,284.938875804467,3309.02510402215,0.1,0.66,0.03,318.791281232584,434.38535701727,3385.56156908761,0.96,0.94,0.08,206.873812756283,487.709041718451,3419.64224970844,0.25,0.08,0.96,239.24964255261,356.986475329558,3509.76741693048,0.78,0.08,0.96,321.398956360866,542.716020036233,3437.57480604264,0.25,0.08,0.96,326.32624508239,496.821879717012,3565.08733669903,0.78,0.08,0.96,32.9917396438754,-192.615324094172,3150.34378194684,0,0,0,43.1505746299226,-211.14067445022,3170.29285024428,0.4,0.4,0.4
8.17248033434977,-222.22822187043,3183.88108199275,0.12,0.8,1,30.6562346879436,-128.765940924409,3122.6937148172,0.56,0.9,1,129.922363715184,-157.245960897709,3182.89063184644,0.56,0.9,1,106.921953028929,-96.2757535585586,3179.03160289319,0.1,0.66,0.03,-18.4761255864477,-97.0800403773371,3147.95780084886,0.85,0.07,0.09,85.9088181477883,-55.0264401493845,3244.44026248754,0.95,0.49,0.05,-132.736459405726,-143.102923861874,3166.17764747632,0.85,0.07,0.09,-74.7232839882208,-169.438801758015,3344.67352265936,0.95,0.49,0.05,-208.272999580672,-342.361601465182,3157.0774763511,0.85,0.07,0.09,-168.766686914096,-337.173649719011,3240.53827948464,0.95,0.49,0.05,232.516726857353,287.367199623827,3308.39080927147,0.1,0.66,0.03,318.438727324248,428.24390489628,3384.30902447643,0.96,0.94,0.08,203.191263825065,485.156266534691,3418.95708884304,0.25,0.08,0.96,240.917704298245,357.319485508926,3509.16149736207,0.78,0.08,0.96,318.553654458593,544.664470559024,3434.42993859189,0.25,0.08,0.96,327.372718398502,497.170642161453,3561.64545681268,0.78,0.08,0.96,36.7246166344213,-200.04382549831,3151.53602595953,0,0,0,47.7324398258238,-215.863914096928,3169.82635532531,0.4,0.4,0.4
8.70495040897446,-222.880542026142,3189.25462154657,0.12,0.8,1,29.970861357036,-124.627647364972,3127.13579990954,0.56,0.9,1,134.842221577417,-154.302381627396,3186.31586732528,0.56,0.9,1,103.527864184789,-84.2160184614079,3180.24524559566,0.1,0.66,0.03,-21.9944282709945,-94.512066941897,3149.06548559261,0.85,0.07,0.09,84.3349555524481,-50.7791711906999,3253.72825755037,0.95,0.49,0.05,-122.649192846548,-144.971141020319,3161.24061797568,0.85,0.07,0.09,-63.2034349127066,-169.9500926838,3347.48812629172,0.95,0.49,0.05,-206.148286044158,-331.907319465711,3155.78849271913,0.85,0.07,0.09,-167.083718689152,-332.019217513611,3243.06874833779,0.95,0.49,0.05,235.642399348411,288.45100337083,3309.22151966551,0.1,0.66,0.03,317.152223044328,434.927243430453,3385.40352403371,0.96,0.94,0.08,205.446132232445,482.239623029592,3420.60848492629,0.25,0.08,0.96,240.183474358856,358.380748280431,3512.14213861618,0.78,0.08,0.96,319.3155033327,543.676569315009,3436.23939121054,0.25,0.08,0.96,328.998453703883,502.885276360695,3562.51057479752,0.78,0.08,0.96,35.7990092722478,-194.601252098034,3154.76796577139,0,0,0,50.5624837886879,-215.092910847551,3173.20891410635,0.4,0.4,0.4
12.4575167347953,-223.199482657095,3189.21898280661,0.12,0.8,1,36.9996040786998,-133.37046132765,3125.91606565327,0.56,0.9,1,136.975045125397,-158.254755097402,3185.80118922565,0.56,0.9,1,110.556280617087,-100.061830844097,3182.86663690444,0.1,0.66,0.03,-14.3990250994101,-100.34009625975,3149.28477180046,0.85,0.07,0.09,83.0681177225955,-61.0521209843554,3250.22082539307,0.95,0.49,0.05,-126.566431958706,-140.302875836426,3160.98907484825,0.85,0.07,0.09,-62.1122640126495,-173.355126438147,3349.88513506345,0.95,0.49,0.05,-205.203180856727,-327.326115217269,3153.53315748427,0.85,0.07,0.09,-164.694035288554,-329.16829696857,3241.56627567908,0.95,0.49,0.05,235.69022976566,289.281216603788,3313.97654995897,0.1,0.66,0.03,317.210647013642,434.054809987744,3392.33544797339,0.96,0.94,0.08,205.281972254473,483.738868056311,3422.52464694608,0.25,0.08,0.96,240.596191438303,355.820850110335,3512.71390155842,0.78,0.08,0.96,320.320582905059,545.226355453996,3440.41868954279,0.25,0.08,0.96,332.508949735153,501.871118922705,3564.52288948929,0.78,0.08,0.96,38.0455570182092,-196.790541935919,3155.05774985869,0,0,0,51.806930437801,-217.291185328887,3174.3866522676,0.4,0.4,0.4
12.793827139395,-218.050054994168,3188.726350155,0.12,0.8,1,38.7540190973838,-133.968860230354,3127.19652370168,0.56,0.9,1,138.274106321926,-160.444919041936,3187.05699133275,0.56,0.9,1,110.202164323607,-94.8859687470361,3185.06173983419,0.1,0.66,0.03,-13.1177161084179,-98.3053883376856,3148.99736152124,0.85,0.07,0.09,85.1667163317224,-60.1504369038094,3254.0623342436,0.95,0.49,0.05,-123.702068002371,-141.377135971364,3157.97052711181,0.85,0.07,0.09,-63.2777600210841,-168.641218592041,3351.99395007816,0.95,0.49,0.05,-205.831091280004,-322.267386418361,3153.51318016152,0.85,0.07,0.09,-170.489958518268,-321.844388291133,3244.92120710825,0.95,0.49,0.05,238.624405839011,286.29682857052,3318.80189024188,0.1,0.66,0.03,320.616294917904,434.914842105855,3400.15981607604,0.96,0.94,0.08,206.45771381238,488.465646379074,3420.32235857281,0.25,0.08,0.96,240.641753754916,356.099877293222,3514.99242170934,0.78,0.08,0.96,325.260566113023,544.26090836068,3440.44425035512,0.25,0.08,0.96,330.912298271133,501.303041876693,3562.20594863393,0.78,0.08,0.96,38.7628028262523,-193.848754984761,3153.45238513736,0,0,0,51.903770702098,-215.261959000441,3174.52227614696,0.4,0.4,0.4
16.2043859450016,-218.187747497687,3188.28032003267,0.12,0.8,1,54.6340157086308,-127.495764982676,3117.59506711149,0.56,0.9,1,140.067836977036,-157.696651999804,3189.12394551744,0.56,0.9,1,111.779448842454,-92.3597337382992,3185.52150132939,0.1,0.66,0.03,-12.6754883854297,-98.98508540635,3150.57986782723,0.85,0.07,0.09,86.315609674439,-57.0024099273574,3259.31220556589,0.95,0.49,0.05,-123.022614572662,-145.138494634293,3158.23423245573,0.85,0.07,0.09,-64.8786998007746,-170.742779473063,3355.13430268141,0.95,0.49,0.05,-204.034617969599,-326.960814850963,3149.0350955633,0.85,0.07,0.09,-165.208053850314,-317.85584383282,3246.77304333037,0.95,0.49,0.05,240.065163198408,287.24493245221,3320.44272981595,0.1,0.66,0.03,319.463324181034,434.708115430208,3402.56858625546,0.96,0.94,0.08,206.371491333502,491.564249484528,3429.48868900011,0.25,0.08,0.96,239.96172564512,360.876609232393,3514.84449128756,0.78,0.08,0.96,322.774558401742,545.149449229885,3442.37376785471,0.25,0.08,0.96,331.904296776184,506.252055608712,3562.02408519134,0.78,0.08,0.96,42.1099646887141,-193.15258874538,3155.3847146464,0,0,0,54.4598720915387,-216.474474201789,3176.44072014519,0.4,0.4,0.4
16.2054984519427,-215.816458621034,3186.7853701577,0.12,0.8,1,38.5672367942221,-132.990645842892,3123.49637581154,0.56,0.9,1,139.426908213942,-145.771485029469,3187.50509431609,0.56,0.9,1,111.351015709453,-89.2053488883293,3187.02294367322,0.1,0.66,0.03,-10.095270043815,-93.4895470879236,3151.20827169631,0.85,0.07,0.09,88.885856862218,-56.3438415140798,3255.32115445209,0.95,0.49,0.05,-120.016508516898,-144.015504099675,3152.01010416558,0.85,0.07,0.09,-62.5679073977875,-170.938906543193,3354.67955306391,0.95,0.49,0.05,-205.025398811936,-321.975676463716,3146.54861547856,0.85,0.07,0.09,-160.900482982753,-315.088336441524,3253.11778325648,0.95,0.49,0.05,243.123165331173,286.803815244771,3320.76401489703,0.1,0.66,0.03,320.176564591944,433.534952035962,3404.64728938038,0.96,0.94,0.08,206.437880858392,486.465579570562,3422.4368428122,0.25,0.08,0.96,240.827365898675,382.759155670551,3519.31020385719,0.78,0.08,0.96,323.743907404651,544.834891405664,3443.46083504589,0.25,0.08,0.96,333.330471234358,504.195651369522,3563.37331580422,0.78,0.08,0.96,45.8000513267188,-192.808422780669,3150.71885083121,0,0,0,56.3269637858621,-214.72686983751,3172.9800600913,0.4,0.4,0.4
17.0126676134847,-214.466205015273,3189.37227614861,0.12,0.8,1,54.7114810618631,-129.142053159566,3115.63152612494,0.56,0.9,1,142.651759315171,-158.308502716099,3190.60695563989,0.56,0.9,1,114.889365687282,-91.8727085065038,3185.74861760609,0.1,0.66,0.03,-9.69281438683151,-97.4782529331123,3149.90205858144,0.85,0.07,0.09,90.5410367364088,-49.5297455208803,3256.58098328318,0.95,0.49,0.05,-118.854106120536,-138.778418065082,3154.8768142424,0.85,0.07,0.09,-61.3369723353294,-174.157272590555,3354.89014787878,0.95,0.49,0.05,-201.481194975255,-317.412751740022,3145.60619315173,0.85,0.07,0.09,-161.392099823544,-307.306703238818,3254.64026290561,0.95,0.49,0.05,245.190097787712,291.566887880613,3325.0556570473,0.1,0.66,0.03,320.502236583991,438.791226375078,3406.36812209407,0.96,0.94,0.08,207.281492539717,488.137592020384,3420.22673902457,0.25,0.08,0.96,238.008492309785,385.689013550684,3521.19302741109,0.78,0.08,0.96,325.754986742034,547.216456333207,3444.10166880976,0.25,0.08,0.96,331.792453357247,507.94290793456,3564.85555459734,0.78,0.08,0.96,45.3550786585524,-190.156062306783,3153.90909737883,0,0,0,56.5666135672615,-215.607136845703,3176.85633804522,0.4,0.4,0.4
19.6120947954214,-212.757066251307,3191.42654333895,0.12,0.8,1,61.158602190948,-122.607843653817,3118.15861980258,0.56,0.9,1,146.060243218266,-159.957500467427,3188.39622629959,0.56,0.9,1,114.740159128143,-85.2949630530984,3187.68293315378,0.1,0.66,0.03,-8.33243670210013,-92.7150701665086,3151.48964536096,0.85,0.07,0.09,90.1526299255917,-46.1065945698046,3255.29435838236,0.95,0.49,0.05,-116.891417698183,-141.319640372553,3156.07336079755,0.85,0.07,0.09,-59.4821098451625,-172.473900412538,3353.50343259903,0.95,0.49,0.05,-201.139654089165,-321.823809199231,3148.75654030339,0.85,0.07,0.09,-163.043750270973,-315.373789816608,3248.31481324478,0.95,0.49,0.05,244.397607784756,283.691210985508,3320.40683049859,0.1,0.66,0.03,317.147017330656,438.958582143487,3405.42190298195,0.96,0.94,0.08,207.324919683183,485.24052673683,3434.3980828305,0.25,0.08,0.96,231.717359033487,404.814489738349,3524.95737135875,0.78,0.08,0.96,323.031355512181,546.677469574522,3441.72507532142,0.25,0.08,0.96,335.022941679968,513.382510366824,3563.36825168492,0.78,0.08,0.96,45.9061695140929,-187.016405436379,3154.49805524546,0,0,0,58.9905076247129,-211.218378850579,3173.82594678927,0.4,0.4,0.4
24.0165651390567,-217.729081058609,3190.70931708862,0.12,0.8,1,67.419670400952,-128.161656446403,3118.19502064523,0.56,0.9,1,153.363593814431,-173.848305608873,3193.24797932866,0.56,0.9,1,119.706177766799,-90.3437105806025,3182.1001586222,0.1,0.66,0.03,-4.28444167427934,-98.5675962193937,3151.69006888486,0.85,0.07,0.09,89.8612605811905,-46.8394371515014,3259.60963516919,0.95,0.49,0.05,-115.434784291551,-142.211068036656,3157.11756489668,0.85,0.07,0.09,-57.7547370389815,-170.420116646436,3352.41359564517,0.95,0.49,0.05,-202.956183313685,-321.445684089708,3148.50313686842,0.85,0.07,0.09,-158.750409820311,-314.020829396973,3251.59052259812,0.95,0.49,0.05,245.540069076745,281.265500547049,3325.34127428231,0.1,0.66,0.03,323.683844533834,427.920272266314,3408.48106643001,0.96,0.94,0.08,205.751018674715,487.381036465495,3420.33582309309,0.25,0.08,0.96,234.254975654382,401.315172481164,3522.9753881285,0.78,0.08,0.96,324.491762482401,546.703083856506,3447.46946094787,0.25,0.08,0.96,334.271720816984,500.353540384049,3563.08657342688,0.78,0.08,0.96,52.9943318754028,-190.350686879194,3154.25625751516,0,0,0,61.6888025514249,-216.318812216322,3175.61601134129,0.4,0.4,0.4
